;FLAVOR:Marlin
;TIME:2562
;Filament used: 3.73389m
;Layer height: 0.25
;MINX:58.753
;MINY:61.75
;MINZ:0.25
;MAXX:141.25
;MAXY:153.25
;MAXZ:3
;Generated with Cura_SteamEngine 4.1.0
M140 S100
M105
M190 S100
M104 S200
M105
M109 S200
M82 ;absolute extrusion mode
G28 ;Home
G1 Z15.0 F6000 ;Move the platform down 15mm
;Prime the extruder
G92 E0
G1 F200 E3
G92 E0
G92 E0
G92 E0
G1 F1500 E-2.5
;LAYER_COUNT:12
;LAYER:0
M107
G0 F3000 X70.202 Y63.203 Z0.25
;TYPE:SKIRT
G1 F1500 E0
G1 X70.585 Y62.852 E0.027
G1 X70.976 Y62.548 E0.05274
G1 X71.402 Y62.268 E0.07923
G1 X71.866 Y62.058 E0.1057
G1 X72.168 Y61.965 E0.12212
G1 X72.411 Y61.903 E0.13515
G1 X72.486 Y61.885 E0.13916
G1 X72.634 Y61.851 E0.14705
G1 X73.301 Y61.769 E0.18198
G1 X74.265 Y61.751 E0.23208
G1 X74.326 Y61.75 E0.23525
G1 X125.938 Y61.75 E2.91748
G1 X126.593 Y61.759 E2.95152
G1 X127.248 Y61.835 E2.98579
G1 X127.733 Y61.942 E3.0116
G1 X128.221 Y62.091 E3.03812
G1 X128.679 Y62.314 E3.06459
G1 X128.983 Y62.516 E3.08356
G1 X129.155 Y62.645 E3.09473
G1 X129.234 Y62.706 E3.09992
G1 X129.443 Y62.873 E3.11382
G1 X129.815 Y63.221 E3.14029
G1 X130.124 Y63.619 E3.16648
G1 X130.431 Y64.083 E3.19539
G1 X130.718 Y64.619 E3.22699
G1 X130.96 Y65.196 E3.25951
G1 X130.976 Y65.235 E3.2617
G1 X131.554 Y66.665 E3.34185
G1 X132.665 Y69.207 E3.48603
G1 X133.812 Y71.639 E3.62577
G1 X135.059 Y74.1 E3.76914
G1 X136.363 Y76.504 E3.91127
G1 X137.73 Y78.86 E4.05283
G1 X139.193 Y81.225 E4.19735
G1 X140.041 Y82.532 E4.27832
G1 X140.509 Y83.24 E4.32242
G1 X140.604 Y83.393 E4.33178
G1 X140.743 Y83.631 E4.34611
G1 X140.965 Y84.09 E4.3726
G1 X141.157 Y84.828 E4.41223
G1 X141.209 Y85.207 E4.43211
G1 X141.238 Y85.591 E4.45213
G1 X141.248 Y86.154 E4.48139
G1 X141.249 Y86.212 E4.48441
G1 X141.25 Y109.642 E5.70204
G1 X141.25 Y109.688 E5.70443
G1 X141.24 Y110.391 E5.74097
G1 X141.211 Y110.78 E5.76124
G1 X141.163 Y111.135 E5.77986
G1 X141.055 Y111.633 E5.80634
G1 X140.899 Y112.049 E5.82943
G1 X140.497 Y112.93 E5.87975
G1 X140.463 Y113.001 E5.88384
G1 X140.123 Y113.7 E5.92424
G1 X139.002 Y116.189 E6.0661
G1 X137.93 Y118.753 E6.21053
G1 X136.956 Y121.295 E6.352
G1 X136.057 Y123.849 E6.49271
G1 X135.22 Y126.461 E6.63525
G1 X134.455 Y129.1 E6.77805
G1 X133.765 Y131.763 E6.92101
G1 X133.157 Y134.407 E7.062
G1 X132.622 Y137.096 E7.20448
G1 X132.16 Y139.805 E7.3473
G1 X131.781 Y142.486 E7.48802
G1 X131.467 Y145.267 E7.63346
G1 X131.248 Y147.864 E7.7689
G1 X131.217 Y148.304 E7.79182
G1 X131.203 Y148.457 E7.79981
G1 X131.15 Y148.906 E7.82331
G1 X131.009 Y149.541 E7.85711
G1 X130.823 Y150.106 E7.88802
G1 X130.626 Y150.576 E7.91451
G1 X130.48 Y150.831 E7.92978
G1 X130.251 Y151.192 E7.95199
G1 X129.919 Y151.629 E7.98052
G1 X129.705 Y151.866 E7.99711
G1 X129.248 Y152.284 E8.0293
G1 X129.013 Y152.461 E8.04459
G1 X128.584 Y152.735 E8.07104
G1 X128.053 Y152.959 E8.10099
G1 X127.826 Y153.032 E8.11338
G1 X127.55 Y153.108 E8.12826
G1 X127.356 Y153.152 E8.1386
G1 X126.698 Y153.231 E8.17304
G1 X125.735 Y153.249 E8.22309
G1 X125.674 Y153.25 E8.22626
G1 X74.063 Y153.25 E10.90843
G1 X73.402 Y153.241 E10.94279
G1 X73.108 Y153.223 E10.9581
G1 X72.869 Y153.198 E10.97058
G1 X72.146 Y153.038 E11.00907
G1 X71.9 Y152.953 E11.02259
G1 X71.433 Y152.749 E11.04908
G1 X71.003 Y152.475 E11.07557
G1 X70.84 Y152.352 E11.08619
G1 X70.763 Y152.292 E11.09126
G1 X70.55 Y152.121 E11.10545
G1 X70.179 Y151.772 E11.13193
G1 X69.872 Y151.376 E11.15797
G1 X69.568 Y150.915 E11.18666
G1 X69.322 Y150.469 E11.21313
G1 X69.218 Y150.212 E11.22754
G1 X69.106 Y149.896 E11.24496
G1 X69.074 Y149.802 E11.25012
G1 X68.99 Y149.54 E11.26442
G1 X68.868 Y149.009 E11.29274
G1 X68.833 Y148.765 E11.30555
G1 X68.813 Y148.598 E11.31429
G1 X68.72 Y147.574 E11.36772
G1 X68.717 Y147.532 E11.36991
G1 X68.589 Y145.883 E11.45587
G1 X68.297 Y143.14 E11.59922
G1 X67.93 Y140.417 E11.74201
G1 X67.492 Y137.74 E11.88299
G1 X66.97 Y135.036 E12.0261
G1 X66.384 Y132.403 E12.16629
G1 X65.714 Y129.748 E12.30859
G1 X64.955 Y127.063 E12.45359
G1 X64.151 Y124.497 E12.59334
G1 X63.25 Y121.882 E12.73708
G1 X62.287 Y119.331 E12.87878
G1 X61.251 Y116.798 E13.021
G1 X59.595 Y113.125 E13.23039
G1 X59.157 Y112.205 E13.28334
G1 X58.916 Y111.501 E13.32201
G1 X58.839 Y111.148 E13.34079
G1 X58.766 Y110.559 E13.37163
G1 X58.756 Y110.248 E13.38781
G1 X58.754 Y110.144 E13.39321
G1 X58.753 Y86.226 E14.6362
G1 X58.753 Y86.177 E14.63875
G1 X58.763 Y85.509 E14.67347
G1 X58.832 Y84.891 E14.70579
G1 X58.906 Y84.538 E14.72453
G1 X59.049 Y84.049 E14.75101
G1 X59.364 Y83.43 E14.7871
G1 X60.984 Y80.944 E14.94131
G1 X62.404 Y78.632 E15.08231
G1 X63.771 Y76.258 E15.22468
G1 X65.072 Y73.845 E15.36715
G1 X66.281 Y71.442 E15.50694
G1 X67.469 Y68.903 E15.65262
G1 X68.534 Y66.448 E15.79169
G1 X68.936 Y65.447 E15.84775
G1 X68.954 Y65.404 E15.85017
G1 X69.269 Y64.65 E15.89264
G1 X69.499 Y64.202 E15.91881
G1 X69.652 Y63.953 E15.934
G1 X69.726 Y63.838 E15.94111
G1 X69.885 Y63.602 E15.95589
G1 X70.202 Y63.203 E15.98238
G1 F1500 E13.48238
;MESH:Brave Wluff.stl
G0 F3000 X70.202 Y84.335
G0 X70.202 Y85.77
G0 X65.81 Y97.29
G0 X65.785 Y98.554
G0 X66.166 Y99.326
;TYPE:WALL-INNER
G1 F1500 E15.98238
G1 X66.671 Y99.831 E16.01949
G1 X67.302 Y100.151 E16.05626
G1 X68 Y100.262 E16.09299
G1 X68.698 Y100.151 E16.12972
G1 X69.329 Y99.831 E16.16649
G1 X69.831 Y99.329 E16.20338
G1 X70.152 Y98.698 E16.24018
G1 X70.261 Y98 E16.27689
G1 X70.152 Y97.302 E16.3136
G1 X69.831 Y96.671 E16.3504
G1 X69.329 Y96.169 E16.38729
G1 X68.698 Y95.849 E16.42406
G1 X68 Y95.738 E16.46079
G1 X67.302 Y95.849 E16.49752
G1 X66.671 Y96.169 E16.53429
G1 X66.169 Y96.671 E16.57118
G1 X65.848 Y97.302 E16.60797
G1 X65.739 Y98 E16.64469
G1 X65.844 Y98.673 E16.68009
G1 X66.166 Y99.326 E16.71792
G0 F3000 X66.085 Y99.384
G0 X67.225 Y100.156
G0 X127.18 Y110.18
G0 X127.25 Y110.25
G1 F1500 X127.25 Y126.425 E17.55852
G1 X127.25 Y126.5 E17.56242
G1 X127.25 Y126.576 E17.56637
G1 X127.249 Y147.837 E18.67128
G1 X127.194 Y148.375 E18.69939
G1 X127.056 Y148.788 E18.72201
G1 X126.866 Y149.077 E18.73999
G1 X126.668 Y149.231 E18.75302
G1 X126.643 Y149.24 E18.75441
G1 X126.559 Y149.25 E18.7588
G1 X73.444 Y149.25 E21.51913
G1 X73.358 Y149.24 E21.52363
G1 X73.328 Y149.229 E21.52529
G1 X73.137 Y149.08 E21.53788
G1 X72.952 Y148.798 E21.55541
G1 X72.808 Y148.373 E21.57873
G1 X72.751 Y147.834 E21.6069
G1 X72.75 Y147.227 E21.63844
G1 X72.75 Y127.923 E22.64165
G1 X72.75 Y127.846 E22.64565
G1 X72.75 Y127.205 E22.67897
G1 X72.749 Y126.577 E22.7116
G1 X72.85 Y127.204 E22.71516
G1 X73.186 Y127.846 E22.73682
G1 X73.24 Y127.9 E22.74055
G1 X73.671 Y128.331 E22.77223
G1 X74.302 Y128.651 E22.80899
G1 X75 Y128.762 E22.84572
G1 X75.698 Y128.651 E22.88245
G1 X76.329 Y128.331 E22.91922
G1 X76.834 Y127.826 E22.95634
G1 X77.155 Y127.174 E22.99411
G1 X77.261 Y126.5 E23.02956
G1 X77.152 Y125.802 E23.06628
G1 X76.831 Y125.171 E23.10307
G1 X76.33 Y124.669 E23.13993
G1 X75.694 Y124.346 E23.177
G1 X74.976 Y124.242 E23.2147
G1 X74.302 Y124.348 E23.25016
G1 X73.667 Y124.672 E23.28721
G1 X73.235 Y125.113 E23.31929
G1 X73.158 Y125.192 E23.32502
G1 X72.847 Y125.806 E23.36079
G1 X72.749 Y126.467 E23.39552
G1 X72.749 Y125.806 E23.39881
G1 X72.749 Y125.192 E23.4145
G1 X72.749 Y125.081 E23.41979
G1 X72.749 Y110.25 E24.19054
G1 X62.753 Y110.25 E24.71002
G1 X62.753 Y85.75 E25.98326
G1 X72.75 Y85.75 E26.50279
G1 X72.75 Y69.925 E27.3252
G1 X72.75 Y69.833 E27.32998
G1 X72.75 Y69.22 E27.36184
G1 X72.751 Y68.586 E27.39479
G1 X72.86 Y69.22 E27.39879
G1 X73.172 Y69.833 E27.41913
G1 X73.237 Y69.897 E27.42353
G1 X73.692 Y70.342 E27.45661
G1 X74.302 Y70.652 E27.49217
G1 X75 Y70.761 E27.52888
G1 X75.698 Y70.652 E27.56559
G1 X76.333 Y70.328 E27.60264
G1 X76.842 Y69.808 E27.64046
G1 X77.152 Y69.198 E27.67602
G1 X77.261 Y68.5 E27.71273
G1 X77.152 Y67.802 E27.74945
G1 X76.831 Y67.171 E27.78624
G1 X76.326 Y66.666 E27.82335
G1 X75.675 Y66.345 E27.86107
G1 X75.075 Y66.249 E27.89265
G1 X75 Y66.238 E27.89659
G1 X74.925 Y66.249 E27.90053
G1 X74.326 Y66.344 E27.93205
G1 X73.67 Y66.669 E27.9701
G1 X73.251 Y67.097 E28.00122
G1 X73.158 Y67.192 E28.00813
G1 X73.087 Y67.332 E28.01629
G1 X72.848 Y67.802 E28.04369
G1 X72.751 Y68.417 E28.07605
G1 X72.751 Y67.802 E28.07908
G1 X72.751 Y67.192 E28.09529
G1 X72.751 Y67.163 E28.09571
G1 X72.752 Y67.152
G1 X72.765 Y67.02 E28.102
G1 X72.806 Y66.629 E28.12243
G1 X72.949 Y66.206 E28.14563
G1 X73.132 Y65.925 E28.16306
G1 X73.333 Y65.769 E28.17628
G1 X73.357 Y65.76 E28.17761
G1 X73.441 Y65.75 E28.18201
G1 X74.924 Y65.75 E28.25908
G1 X75 Y65.75 E28.26298
G1 X75.076 Y65.75 E28.26689
G1 X124.425 Y65.75 E30.8315
G1 X124.5 Y65.75 E30.8354
G1 X124.576 Y65.75 E30.83935
G1 X126.555 Y65.75 E30.9422
G1 X126.642 Y65.76 E30.94675
G1 X126.672 Y65.771 E30.94841
G1 X126.863 Y65.92 E30.961
G1 X127.049 Y66.202 E30.97855
G1 X127.191 Y66.625 E31.00174
G1 X127.249 Y67.162 E31.02981
G1 X127.249 Y68.417 E31.09503
G1 X127.249 Y68.499 E31.09929
G1 X127.249 Y68.581 E31.10356
G1 X127.25 Y85.75 E31.99581
G1 X137.249 Y85.75 E32.51545
G1 X137.25 Y110 E33.7757
G1 X137.25 Y110.25 E33.78869
G1 X137 Y110.25 E33.79709
G1 X127.25 Y110.25 E34.30379
G0 F3000 X127.18 Y110.18
G0 X130.616 Y99.915
G0 X130.674 Y99.834
G1 F1500 X131.325 Y100.155 E34.34151
G1 X132 Y100.262 E34.37703
G1 X132.674 Y100.156 E34.41249
G1 X133.326 Y99.834 E34.45028
G1 X133.831 Y99.329 E34.48739
G1 X134.153 Y98.695 E34.52435
G1 X134.259 Y97.976 E34.56212
G1 X134.151 Y97.302 E34.59759
G1 X133.831 Y96.671 E34.63436
G1 X133.329 Y96.169 E34.67125
G1 X132.698 Y95.848 E34.70804
G1 X132 Y95.739 E34.74476
G1 X131.302 Y95.848 E34.78147
G1 X130.671 Y96.169 E34.81826
G1 X130.169 Y96.671 E34.85516
G1 X129.848 Y97.302 E34.89195
G1 X129.739 Y98 E34.92866
G1 X129.848 Y98.698 E34.96538
G1 X130.169 Y99.329 E35.00217
G1 X130.674 Y99.834 E35.03929
G0 F3000 X130.616 Y99.915
G0 X127.222 Y110.222
G0 X126.802 Y126.5
G0 X126.415 Y127.884
G0 X126.334 Y127.826
G1 F1500 X126.655 Y127.175 E35.07701
G1 X126.751 Y126.575 E35.10858
G1 X126.762 Y126.5 E35.11248
G1 X126.751 Y126.426 E35.11632
G1 X126.651 Y125.802 E35.14916
G1 X126.331 Y125.171 E35.18593
G1 X125.83 Y124.669 E35.22279
G1 X125.194 Y124.346 E35.25986
G1 X124.476 Y124.242 E35.29756
G1 X123.797 Y124.349 E35.33328
G1 X123.153 Y124.687 E35.37108
G1 X122.669 Y125.17 E35.40661
G1 X122.346 Y125.806 E35.44368
G1 X122.242 Y126.524 E35.48139
G1 X122.349 Y127.203 E35.51711
G1 X122.687 Y127.847 E35.55491
G1 X123.171 Y128.331 E35.59048
G1 X123.802 Y128.651 E35.62725
G1 X124.5 Y128.762 E35.66398
G1 X125.198 Y128.651 E35.70071
G1 X125.829 Y128.331 E35.73748
G1 X126.334 Y127.826 E35.77459
G0 F3000 X126.415 Y127.884
G0 X126.802 Y126.5
G0 X126.802 Y68.5
G0 X126.409 Y67.108
G0 X126.329 Y67.167
G1 F1500 X125.809 Y66.657 E35.81244
G1 X125.175 Y66.345 E35.84916
G1 X124.575 Y66.249 E35.88074
G1 X124.5 Y66.238 E35.88463
G1 X124.426 Y66.249 E35.88848
G1 X123.796 Y66.351 E35.92164
G1 X123.17 Y66.669 E35.95813
G1 X122.669 Y67.171 E35.99499
G1 X122.348 Y67.802 E36.03178
G1 X122.239 Y68.5 E36.0685
G1 X122.348 Y69.198 E36.10521
G1 X122.669 Y69.829 E36.142
G1 X123.171 Y70.331 E36.1789
G1 X123.78 Y70.639 E36.21436
G1 X124.494 Y70.762 E36.25201
G1 X125.198 Y70.652 E36.28904
G1 X125.833 Y70.328 E36.32609
G1 X126.342 Y69.808 E36.36391
G1 X126.651 Y69.198 E36.39944
G1 X126.75 Y68.581 E36.43192
G1 X126.762 Y68.5 E36.43612
G1 X126.75 Y68.419 E36.44032
G1 X126.651 Y67.802 E36.47279
G1 X126.329 Y67.167 E36.50979
G0 F3000 X126.409 Y67.108
G0 X126.802 Y68.5
G0 X126.435 Y69.712
G0 X125.533 Y69.92
;TYPE:WALL-OUTER
G1 F1500 X125.931 Y69.513 E36.53938
G1 X126.17 Y69.042 E36.56683
G1 X126.256 Y68.5 E36.59535
G1 X126.17 Y67.958 E36.62387
G1 X125.92 Y67.467 E36.6525
G1 X125.516 Y67.07 E36.68194
G1 X125.022 Y66.827 E36.71055
G1 X124.5 Y66.744 E36.73801
G1 X123.953 Y66.832 E36.76681
G1 X123.468 Y67.079 E36.79509
G1 X123.079 Y67.468 E36.82368
G1 X122.83 Y67.958 E36.85225
G1 X122.745 Y68.5 E36.88076
G1 X122.83 Y69.042 E36.90927
G1 X123.079 Y69.532 E36.93783
G1 X123.468 Y69.921 E36.96642
G1 X123.939 Y70.159 E36.99385
G1 X124.498 Y70.255 E37.02332
G1 X125.042 Y70.17 E37.05194
G1 X125.533 Y69.92 E37.08057
G0 F3000 X125.707 Y69.742
G0 X126.135 Y70.162
G0 X127.222 Y85.778
G0 X129.81 Y98.71
G0 X130.545 Y99.845
G0 X130.969 Y99.422
G1 F1500 X131.478 Y99.673 E37.11007
G1 X132 Y99.756 E37.13753
G1 X132.521 Y99.674 E37.16494
G1 X133.031 Y99.422 E37.19451
G1 X133.421 Y99.032 E37.22317
G1 X133.67 Y98.541 E37.25178
G1 X133.753 Y97.979 E37.2813
G1 X133.67 Y97.458 E37.30872
G1 X133.421 Y96.968 E37.33728
G1 X133.032 Y96.579 E37.36587
G1 X132.542 Y96.33 E37.39444
G1 X132 Y96.245 E37.42295
G1 X131.458 Y96.33 E37.45146
G1 X130.968 Y96.579 E37.48003
G1 X130.579 Y96.968 E37.50861
G1 X130.33 Y97.458 E37.53718
G1 X130.245 Y98 E37.56569
G1 X130.33 Y98.542 E37.5942
G1 X130.579 Y99.032 E37.62277
G1 X130.969 Y99.422 E37.65143
G0 F3000 X131.193 Y99.532
G0 X130.928 Y100.069
G0 X127.222 Y110.222
G0 X122.236 Y125.873
G0 X122.829 Y125.959
G1 F1500 X122.748 Y126.521 E37.68094
G1 X122.83 Y127.044 E37.70845
G1 X123.094 Y127.547 E37.73797
G1 X123.468 Y127.921 E37.76546
G1 X123.958 Y128.17 E37.79402
G1 X124.5 Y128.256 E37.82254
G1 X125.042 Y128.17 E37.85106
G1 X125.532 Y127.921 E37.87963
G1 X125.922 Y127.531 E37.90829
G1 X126.173 Y127.022 E37.93778
G1 X126.256 Y126.5 E37.96525
G1 X126.17 Y125.958 E37.99377
G1 X125.921 Y125.468 E38.02233
G1 X125.532 Y125.079 E38.05092
G1 X125.041 Y124.829 E38.07956
G1 X124.479 Y124.748 E38.10907
G1 X123.956 Y124.83 E38.13658
G1 X123.453 Y125.094 E38.1661
G1 X123.079 Y125.468 E38.19359
G1 X122.829 Y125.959 E38.22222
G0 F3000 X122.794 Y126.206
G0 X122.2 Y126.119
G0 X76.845 Y127.955
G0 X76.422 Y127.531
G1 F1500 X76.673 Y127.021 E38.25176
G1 X76.755 Y126.5 E38.27917
G1 X76.67 Y125.958 E38.30768
G1 X76.421 Y125.468 E38.33625
G1 X76.032 Y125.079 E38.36484
G1 X75.541 Y124.829 E38.39347
G1 X74.979 Y124.748 E38.42298
G1 X74.458 Y124.83 E38.45039
G1 X73.967 Y125.08 E38.47902
G1 X73.569 Y125.487 E38.50861
G1 X73.33 Y125.959 E38.5361
G1 X73.247 Y126.521 E38.56562
G1 X73.331 Y127.044 E38.59315
G1 X73.594 Y127.547 E38.62265
G1 X73.968 Y127.921 E38.65014
G1 X74.458 Y128.17 E38.6787
G1 X75 Y128.256 E38.70722
G1 X75.542 Y128.17 E38.73574
G1 X76.032 Y127.921 E38.7643
G1 X76.422 Y127.531 E38.79297
G0 F3000 X76.532 Y127.307
G0 X77.069 Y127.572
G0 X77.301 Y126.5
G0 X72.849 Y110.75
G0 X72.25 Y110.75
G1 F1500 X62.463 Y110.75 E39.30159
G1 X62.332 Y110.733 E39.30845
G1 X62.315 Y110.708 E39.31002
G1 X62.253 Y110.426 E39.32503
G1 X62.253 Y85.574 E40.61656
G1 X62.314 Y85.293 E40.6315
G1 X62.344 Y85.25 E40.63423
G1 X72.25 Y85.25 E41.14903
G1 X72.251 Y67.141 E42.09014
G1 X72.315 Y66.521 E42.12253
G1 X72.495 Y65.986 E42.15187
G1 X72.759 Y65.583 E42.1769
G1 X73.09 Y65.325 E42.19871
G1 X73.242 Y65.271 E42.2071
G1 X73.413 Y65.25 E42.21605
G1 X126.588 Y65.25 E44.9795
G1 X126.758 Y65.27 E44.9884
G1 X126.917 Y65.328 E44.99719
G1 X127.236 Y65.577 E45.01822
G1 X127.502 Y65.981 E45.04336
G1 X127.682 Y66.515 E45.07264
G1 X127.749 Y67.136 E45.1051
G1 X127.75 Y85.25 E46.04647
G1 X137.538 Y85.25 E46.55514
G1 X137.656 Y85.265 E46.56132
G1 X137.706 Y85.35 E46.56645
G1 X137.749 Y85.669 E46.58318
G1 X137.75 Y110.296 E47.86302
G1 X137.75 Y110.329 E47.86473
G1 X137.705 Y110.65 E47.88158
G1 X137.647 Y110.75 E47.88758
G1 X137.614 Y110.75 E47.8893
G1 X127.75 Y110.75 E48.40192
G1 X127.749 Y147.859 E50.33044
G1 X127.685 Y148.481 E50.36293
G1 X127.509 Y149.008 E50.39181
G1 X127.238 Y149.421 E50.41748
G1 X126.91 Y149.675 E50.43904
G1 X126.758 Y149.729 E50.44742
G1 X126.587 Y149.75 E50.45637
G1 X73.412 Y149.75 E53.21982
G1 X73.242 Y149.73 E53.22872
G1 X73.083 Y149.672 E53.23752
