;FLAVOR:Marlin
;TIME:1575
;Filament used: 2.19774m
;Layer height: 0.25
;MINX:59.25
;MINY:66.75
;MINZ:0.25
;MAXX:140.75
;MAXY:148.25
;MAXZ:3
;Generated with Cura_SteamEngine 4.1.0
M140 S100
M105
M190 S100
M104 S200
M105
M109 S200
M82 ;absolute extrusion mode
G28 ;Home
G1 Z15.0 F6000 ;Move the platform down 15mm
;Prime the extruder
G92 E0
G1 F200 E3
G92 E0
G92 E0
G92 E0
G1 F1500 E-2.5
;LAYER_COUNT:12
;LAYER:0
M107
G0 F3000 X84.904 Y68.069 Z0.25
;TYPE:SKIRT
G1 F1500 E0
G1 X85.239 Y67.685 E0.02648
G1 X85.63 Y67.359 E0.05294
G1 X86.068 Y67.097 E0.07946
G1 X86.54 Y66.907 E0.1059
G1 X87.037 Y66.794 E0.13239
G1 X87.42 Y66.76 E0.15238
G1 X87.742 Y66.751 E0.16912
G1 X87.833 Y66.75 E0.17385
G1 X111.836 Y66.75 E1.42126
G1 X112.537 Y66.76 E1.45769
G1 X113.045 Y66.808 E1.48421
G1 X113.538 Y66.933 E1.51064
G1 X114.006 Y67.135 E1.53713
G1 X114.437 Y67.407 E1.56362
G1 X114.82 Y67.743 E1.59009
G1 X115.135 Y68.12 E1.61562
G1 X116.124 Y69.503 E1.70398
G1 X117.738 Y71.677 E1.8447
G1 X119.447 Y73.848 E1.98829
G1 X121.175 Y75.918 E2.12842
G1 X123.025 Y78.013 E2.27367
G1 X124.867 Y79.983 E2.41383
G1 X126.787 Y81.925 E2.55575
G1 X128.78 Y83.828 E2.69896
G1 X130.802 Y85.653 E2.84051
G1 X132.888 Y87.432 E2.98299
G1 X135.04 Y89.164 E3.12654
G1 X137.196 Y90.799 E3.26716
G1 X139.337 Y92.334 E3.40407
G1 X139.379 Y92.364 E3.40675
G1 X139.769 Y92.692 E3.43324
G1 X140.103 Y93.077 E3.45973
G1 X140.373 Y93.509 E3.4862
G1 X140.572 Y93.978 E3.51268
G1 X140.695 Y94.472 E3.53913
G1 X140.738 Y94.909 E3.56195
G1 X140.748 Y95.233 E3.5788
G1 X140.75 Y95.333 E3.584
G1 X140.75 Y119.309 E4.83001
G1 X140.74 Y120.033 E4.86763
G1 X140.693 Y120.54 E4.8941
G1 X140.567 Y121.034 E4.92059
G1 X140.366 Y121.502 E4.94706
G1 X140.094 Y121.933 E4.97355
G1 X139.758 Y122.316 E5.00002
G1 X139.394 Y122.622 E5.02474
G1 X138.325 Y123.395 E5.09329
G1 X138.282 Y123.425 E5.09602
G1 X138.022 Y123.607 E5.11251
G1 X135.801 Y125.255 E5.25624
G1 X133.673 Y126.931 E5.39701
G1 X131.561 Y128.693 E5.53995
G1 X129.487 Y130.525 E5.68376
G1 X127.517 Y132.367 E5.82392
G1 X125.575 Y134.287 E5.96584
G1 X123.672 Y136.28 E6.10905
G1 X121.846 Y138.303 E6.25068
G1 X120.068 Y140.388 E6.39308
G1 X118.335 Y142.541 E6.53671
G1 X116.701 Y144.695 E6.67722
G1 X115.162 Y146.842 E6.8145
G1 X115.128 Y146.888 E6.81747
G1 X115.096 Y146.931 E6.82026
G1 X114.761 Y147.315 E6.84674
G1 X114.37 Y147.641 E6.8732
G1 X113.932 Y147.903 E6.89972
G1 X113.46 Y148.093 E6.92617
G1 X112.963 Y148.206 E6.95265
G1 X112.58 Y148.24 E6.97264
G1 X112.258 Y148.249 E6.98938
G1 X112.167 Y148.25 E6.99411
G1 X88.163 Y148.25 E8.24157
G1 X87.465 Y148.24 E8.27785
G1 X86.958 Y148.192 E8.30431
G1 X86.464 Y148.067 E8.33079
G1 X85.996 Y147.865 E8.35728
G1 X85.566 Y147.593 E8.38373
G1 X85.183 Y147.257 E8.4102
G1 X84.877 Y146.893 E8.43492
G1 X84.094 Y145.809 E8.50441
G1 X84.066 Y145.77 E8.50691
G1 X83.876 Y145.498 E8.52415
G1 X82.245 Y143.301 E8.66635
G1 X80.569 Y141.173 E8.80712
G1 X78.807 Y139.061 E8.95006
G1 X76.975 Y136.987 E9.09387
G1 X75.133 Y135.017 E9.23403
G1 X73.213 Y133.075 E9.37595
G1 X71.22 Y131.172 E9.51916
G1 X69.197 Y129.346 E9.66079
G1 X67.112 Y127.568 E9.80319
G1 X64.959 Y125.835 E9.94682
G1 X62.805 Y124.201 E10.08733
G1 X60.658 Y122.662 E10.22461
G1 X60.612 Y122.628 E10.22758
G1 X60.569 Y122.596 E10.23037
G1 X60.185 Y122.261 E10.25685
G1 X59.859 Y121.87 E10.28331
G1 X59.597 Y121.432 E10.30983
G1 X59.407 Y120.96 E10.33627
G1 X59.294 Y120.463 E10.36276
G1 X59.26 Y120.08 E10.38274
G1 X59.251 Y119.758 E10.39948
G1 X59.25 Y119.667 E10.40421
G1 X59.25 Y95.663 E11.65168
G1 X59.26 Y94.965 E11.68795
G1 X59.308 Y94.458 E11.71442
G1 X59.433 Y93.964 E11.7409
G1 X59.635 Y93.496 E11.76739
G1 X59.907 Y93.066 E11.79384
G1 X60.243 Y92.683 E11.82031
G1 X60.606 Y92.378 E11.84495
G1 X61.674 Y91.606 E11.91344
G1 X61.717 Y91.576 E11.91616
G1 X62 Y91.379 E11.93408
G1 X64.177 Y89.762 E12.07501
G1 X66.327 Y88.069 E12.21723
G1 X68.439 Y86.307 E12.36017
G1 X70.513 Y84.475 E12.50398
G1 X72.483 Y82.633 E12.64414
G1 X74.425 Y80.713 E12.78606
G1 X76.328 Y78.72 E12.92927
G1 X78.154 Y76.697 E13.0709
G1 X79.932 Y74.612 E13.2133
G1 X81.665 Y72.459 E13.35693
G1 X83.299 Y70.305 E13.49744
G1 X84.838 Y68.158 E13.63472
G1 X84.872 Y68.112 E13.63769
G1 X84.904 Y68.069 E13.64048
G1 F1500 E11.14048
;MESH:Diy Drone base (1).stl
G0 F3000 X86.838 Y70.764
G0 X88.267 Y70.764
G0 X100.873 Y73.373
G0 X101.835 Y74.137
G0 X102.314 Y75.019
G0 X102.217 Y75.04
;TYPE:WALL-INNER
G1 F1500 E13.64048
G1 X101.891 Y74.257 E13.68456
G1 X101.433 Y73.752 E13.71999
G1 X100.858 Y73.409 E13.75478
G1 X100.219 Y73.25 E13.789
G1 X99.55 Y73.285 E13.82382
G1 X98.928 Y73.511 E13.85821
G1 X98.401 Y73.902 E13.89231
G1 X98.006 Y74.435 E13.92679
G1 X97.782 Y75.06 E13.96129
G1 X97.752 Y75.729 E13.99609
G1 X97.912 Y76.366 E14.03023
G1 X98.258 Y76.941 E14.0651
G1 X98.751 Y77.384 E14.09955
G1 X99.353 Y77.666 E14.13409
G1 X100.008 Y77.76 E14.16848
G1 X100.658 Y77.663 E14.20264
G1 X101.263 Y77.374 E14.23748
G1 X101.747 Y76.933 E14.27151
G1 X102.089 Y76.366 E14.30592
G1 X102.249 Y75.722 E14.34041
G1 X102.217 Y75.04 E14.37589
G0 F3000 X102.314 Y75.019
G0 X111.719 Y95.781
G0 X131.745 Y105.15
G0 X131.757 Y105.249
G1 F1500 X130.942 Y105.5 E14.42021
G1 X130.397 Y105.909 E14.45562
G1 X130.006 Y106.435 E14.48968
G1 X129.781 Y107.068 E14.52459
G1 X129.752 Y107.731 E14.55908
G1 X129.916 Y108.374 E14.59357
G1 X130.258 Y108.941 E14.62798
G1 X130.744 Y109.379 E14.66198
G1 X131.343 Y109.664 E14.69645
G1 X132 Y109.762 E14.73097
G1 X132.658 Y109.663 E14.76555
G1 X133.263 Y109.374 E14.8004
G1 X133.747 Y108.933 E14.83443
G1 X134.089 Y108.366 E14.86884
G1 X134.25 Y107.72 E14.90344
G1 X134.215 Y107.051 E14.93825
G1 X133.994 Y106.434 E14.97231
G1 X133.598 Y105.902 E15.00678
G1 X133.065 Y105.506 E15.04128
G1 X132.434 Y105.281 E15.0761
G1 X131.757 Y105.249 E15.11132
G0 F3000 X131.745 Y105.15
G0 X111.677 Y119.177
G0 X111.747 Y119.247
G1 F1500 X111.747 Y144.25 E16.4107
G1 X88.253 Y144.25 E17.63166
G1 X88.253 Y119.247 E18.93104
G1 X63.25 Y119.247 E20.23042
G1 X63.25 Y95.753 E21.45138
G1 X88.253 Y95.753 E22.75076
G1 X88.253 Y70.75 E24.05014
G1 X111.747 Y70.75 E25.2711
G1 X111.747 Y95.753 E26.57048
G1 X136.75 Y95.753 E27.86986
G1 X136.75 Y119.247 E29.09082
G1 X111.747 Y119.247 E30.3902
G0 F3000 X111.677 Y119.177
G0 X98.484 Y137.688
G0 X98.549 Y137.763
G1 F1500 X98.009 Y138.425 E30.43459
G1 X97.781 Y139.067 E30.47
G1 X97.751 Y139.724 E30.50418
G1 X97.916 Y140.373 E30.53898
G1 X98.253 Y140.934 E30.57299
G1 X98.742 Y141.379 E30.60735
G1 X99.343 Y141.664 E30.64192
G1 X100.001 Y141.762 E30.67649
G1 X100.665 Y141.661 E30.71139
G1 X101.264 Y141.374 E30.74591
G1 X101.747 Y140.933 E30.7799
G1 X102.089 Y140.366 E30.81431
G1 X102.25 Y139.72 E30.84891
G1 X102.215 Y139.051 E30.88373
G1 X101.994 Y138.434 E30.91779
G1 X101.598 Y137.902 E30.95225
G1 X101.065 Y137.506 E30.98676
G1 X100.44 Y137.282 E31.02126
G1 X99.777 Y137.251 E31.05576
G1 X99.128 Y137.415 E31.09055
G1 X98.549 Y137.763 E31.12565
G0 F3000 X98.484 Y137.688
G0 X88.281 Y119.219
G0 X67.121 Y109.626
G0 X66.093 Y108.785
G0 X65.718 Y107.635
G0 X65.839 Y106.826
G1 F1500 X65.738 Y107.508 E31.16148
G1 X65.837 Y108.158 E31.19565
G1 X66.126 Y108.763 E31.2305
G1 X66.567 Y109.247 E31.26452
G1 X67.136 Y109.59 E31.29905
G1 X67.786 Y109.749 E31.33383
G1 X68.442 Y109.718 E31.36796
G1 X69.072 Y109.49 E31.40277
G1 X69.599 Y109.098 E31.43691
G1 X69.994 Y108.565 E31.47139
G1 X70.218 Y107.94 E31.50589
G1 X70.249 Y107.278 E31.54033
G1 X70.089 Y106.635 E31.57477
G1 X69.746 Y106.064 E31.60938
G1 X69.25 Y105.617 E31.64408
G1 X68.649 Y105.334 E31.6786
G1 X67.998 Y105.238 E31.7128
G1 X67.335 Y105.339 E31.74765
G1 X66.736 Y105.627 E31.7822
G1 X66.234 Y106.085 E31.81751
G1 X65.839 Y106.826 E31.86115
G0 F3000 X66.321 Y106.985
;TYPE:WALL-OUTER
G1 F1500 X66.244 Y107.507 E31.88857
G1 X66.32 Y108.01 E31.91501
G1 X66.545 Y108.481 E31.94213
G1 X66.887 Y108.856 E31.96851
G1 X67.329 Y109.122 E31.99532
G1 X67.835 Y109.246 E32.02239
G1 X68.343 Y109.222 E32.04882
G1 X68.833 Y109.045 E32.0759
G1 X69.241 Y108.741 E32.10234
G1 X69.548 Y108.327 E32.12913
G1 X69.722 Y107.842 E32.1559
G1 X69.746 Y107.328 E32.18264
G1 X69.622 Y106.828 E32.20942
G1 X69.356 Y106.386 E32.23623
G1 X68.97 Y106.038 E32.26323
G1 X68.503 Y105.818 E32.29006
G1 X67.999 Y105.744 E32.31654
G1 X67.484 Y105.822 E32.3436
G1 X67.019 Y106.046 E32.37043
G1 X66.635 Y106.396 E32.39743
G1 X66.321 Y106.985 E32.43212
G0 F3000 X66.285 Y107.232
G0 X65.692 Y107.144
G0 X65.799 Y108.169
G0 X66.542 Y109.277
G0 X78.597 Y119.219
G0 X88.281 Y119.219
G0 X98.417 Y137.767
G0 X98.881 Y138.147
G1 F1500 X98.451 Y138.674 E32.46746
G1 X98.277 Y139.164 E32.49449
G1 X98.254 Y139.673 E32.52097
G1 X98.382 Y140.178 E32.54804
G1 X98.644 Y140.613 E32.57443
G1 X99.024 Y140.959 E32.60114
G1 X99.49 Y141.18 E32.62794
G1 X100 Y141.256 E32.65474
G1 X100.516 Y141.178 E32.68186
G1 X100.981 Y140.955 E32.70866
G1 X101.356 Y140.613 E32.73504
G1 X101.622 Y140.172 E32.7618
G1 X101.747 Y139.671 E32.78864
G1 X101.72 Y139.151 E32.8157
G1 X101.548 Y138.673 E32.8421
G1 X101.241 Y138.259 E32.86888
G1 X100.827 Y137.952 E32.89567
G1 X100.342 Y137.778 E32.92244
G1 X99.828 Y137.754 E32.94919
G1 X99.322 Y137.882 E32.97631
G1 X98.881 Y138.147 E33.00305
G0 F3000 X98.723 Y138.34
G0 X98.259 Y137.961
G0 X111.647 Y119.747
G0 X112.247 Y119.747
G1 F1500 X112.247 Y144.75 E34.30243
G1 X87.753 Y144.75 E35.57536
G1 X87.753 Y119.747 E36.87474
G1 X62.75 Y119.747 E38.17412
G1 X62.75 Y95.253 E39.44704
G1 X87.753 Y95.253 E40.74642
G1 X87.753 Y70.25 E42.0458
G1 X112.247 Y70.25 E43.31873
G1 X112.247 Y95.253 E44.61811
G1 X137.25 Y95.253 E45.91749
G1 X137.25 Y119.747 E47.19042
G1 X112.247 Y119.747 E48.4898
G0 F3000 X112.247 Y119.997
G0 X111.647 Y119.997
G0 X130.813 Y105.472
G0 X131.172 Y105.952
G1 F1500 X130.755 Y106.265 E48.5169
G1 X130.452 Y106.673 E48.54331
G1 X130.277 Y107.165 E48.57044
G1 X130.255 Y107.679 E48.59718
G1 X130.382 Y108.179 E48.62399
G1 X130.648 Y108.619 E48.65071
G1 X131.025 Y108.959 E48.67709
G1 X131.49 Y109.18 E48.70385
G1 X132 Y109.256 E48.73065
G1 X132.51 Y109.18 E48.75744
G1 X132.981 Y108.955 E48.78457
G1 X133.356 Y108.613 E48.81095
G1 X133.622 Y108.172 E48.83771
G1 X133.747 Y107.671 E48.86455
G1 X133.72 Y107.151 E48.89161
G1 X133.548 Y106.673 E48.91801
G1 X133.241 Y106.259 E48.94479
G1 X132.827 Y105.952 E48.97158
G1 X132.336 Y105.777 E48.99867
G1 X131.821 Y105.753 E49.02546
G1 X131.172 Y105.952 E49.06074
G0 F3000 X130.972 Y106.102
G0 X130.613 Y105.622
G0 X111.719 Y95.781
G0 X102.276 Y74.922
G0 X101.722 Y75.151
G1 F1500 X101.463 Y74.529 E49.09575
G1 X101.113 Y74.143 E49.12283
G1 X100.665 Y73.876 E49.14993
G1 X100.171 Y73.753 E49.17639
G1 X99.651 Y73.78 E49.20345
G1 X99.167 Y73.956 E49.23021
G1 X98.759 Y74.259 E49.25663
G1 X98.452 Y74.673 E49.28341
G1 X98.278 Y75.158 E49.31019
G1 X98.255 Y75.678 E49.33724
G1 X98.379 Y76.172 E49.36371
G1 X98.648 Y76.619 E49.39082
G1 X99.03 Y76.963 E49.41753
G1 X99.498 Y77.182 E49.44439
G1 X100.007 Y77.255 E49.47111
G1 X100.51 Y77.18 E49.49754
G1 X100.981 Y76.955 E49.52467
G1 X101.356 Y76.613 E49.55104
G1 X101.622 Y76.172 E49.57781
G1 X101.746 Y75.672 E49.60458
G1 X101.722 Y75.151 E49.63168
G0 F3000 X101.626 Y74.92
G0 X102.18 Y74.69
G0 X102.703 Y74.931
;TYPE:SKIN
G1 F1500 X102.311 Y73.99 E49.68466
G1 X101.747 Y73.368 E49.72829
G1 X101.046 Y72.951 E49.77068
G1 X100.266 Y72.756 E49.81247
G1 X99.452 Y72.799 E49.85483
G1 X98.693 Y73.074 E49.89678
G1 X98.05 Y73.552 E49.93842
G1 X97.569 Y74.202 E49.98044
G1 X97.296 Y74.964 E50.02251
G1 X97.26 Y75.778 E50.06485
G1 X97.455 Y76.556 E50.10653
G1 X97.876 Y77.256 E50.14899
G1 X98.477 Y77.797 E50.19101
G1 X99.212 Y78.14 E50.23316
G1 X100.01 Y78.256 E50.27507
G1 X100.803 Y78.137 E50.31674
G1 X101.54 Y77.785 E50.35919
G1 X102.129 Y77.247 E50.40064
G1 X102.547 Y76.556 E50.44261
G1 X102.741 Y75.771 E50.48464
G1 X102.703 Y74.931 E50.52833
G0 F3000 X111.257 Y71.24
G1 F1500 X111.257 Y96.243 E51.82771
G1 X136.26 Y96.243 E53.12709
G1 X136.26 Y118.757 E54.29712
G1 X111.257 Y118.757 E55.5965
G1 X111.257 Y143.76 E56.89588
G1 X88.743 Y143.76 E58.06591
G1 X88.743 Y118.757 E59.36529
G1 X63.74 Y118.757 E60.66467
G1 X63.74 Y96.243 E61.8347
G1 X88.743 Y96.243 E63.13408
G1 X88.743 Y71.24 E64.43346
G1 X111.257 Y71.24 E65.60349
G0 F3000 X111.719 Y95.781
G0 X130.046 Y105.56
G1 F1500 X129.569 Y106.202 E65.64506
G1 X129.295 Y106.974 E65.68763
G1 X129.26 Y107.782 E65.72966
G1 X129.459 Y108.566 E65.77169
G1 X129.876 Y109.257 E65.81364
G1 X130.469 Y109.791 E65.85511
G1 X131.198 Y110.138 E65.89707
G1 X132 Y110.258 E65.93921
G1 X132.803 Y110.137 E65.98141
G1 X133.54 Y109.785 E66.02386
G1 X134.13 Y109.247 E66.06535
G1 X134.546 Y108.556 E66.10727
G1 X134.744 Y107.767 E66.14954
G1 X134.701 Y106.953 E66.1919
G1 X134.431 Y106.2 E66.23348
G1 X133.948 Y105.551 E66.27552
G1 X133.298 Y105.069 E66.31757
G1 X132.53 Y104.795 E66.35995
G1 X131.694 Y104.755 E66.40345
G1 X130.716 Y105.057 E66.45664
G1 X130.046 Y105.56 E66.50018
G0 F3000 X111.719 Y119.219
G0 X99.728 Y136.759
G1 F1500 X98.938 Y136.958 E66.54252
G1 X98.223 Y137.387 E66.58585
G1 X97.576 Y138.182 E66.63912
G1 X97.295 Y138.971 E66.68265
G1 X97.259 Y139.775 E66.72447
G1 X97.459 Y140.563 E66.76672
G1 X97.87 Y141.248 E66.80823
G1 X98.466 Y141.79 E66.8501
G1 X99.198 Y142.138 E66.89222
G1 X100.001 Y142.258 E66.93442
G1 X100.81 Y142.135 E66.97694
G1 X101.541 Y141.785 E67.01906
G1 X102.13 Y141.247 E67.06052
G1 X102.546 Y140.556 E67.10243
G1 X102.744 Y139.767 E67.14471
G1 X102.701 Y138.953 E67.18707
G1 X102.431 Y138.2 E67.22864
G1 X101.948 Y137.551 E67.27069
G1 X101.298 Y137.069 E67.31274
G1 X100.536 Y136.796 E67.35481
G1 X99.728 Y136.759 E67.39684
G0 F3000 X88.281 Y119.219
G0 X70.128 Y105.749
G1 F1500 X69.524 Y105.205 E67.43908
G1 X68.792 Y104.86 E67.48114
G1 X67.996 Y104.742 E67.52296
G1 X67.188 Y104.865 E67.56543
G1 X66.459 Y105.217 E67.6075
G1 X65.842 Y105.78 E67.65091
G1 X65.367 Y106.671 E67.70338
G1 X65.242 Y107.509 E67.74742
G1 X65.363 Y108.303 E67.78916
G1 X65.715 Y109.04 E67.8316
G1 X66.253 Y109.629 E67.87306
G1 X66.947 Y110.048 E67.91519
G1 X67.739 Y110.241 E67.95755
G1 X68.539 Y110.204 E67.99917
G1 X69.307 Y109.927 E68.0416
G1 X69.95 Y109.448 E68.08327
G1 X70.431 Y108.798 E68.12529
G1 X70.704 Y108.036 E68.16736
G1 X70.741 Y107.229 E68.20934
G1 X70.547 Y106.445 E68.25131
G1 X70.128 Y105.749 E68.29353
G0 F3000 X88.281 Y119.219
G0 X89.086 Y143.534
G1 F1500 X88.968 Y143.415 E68.30224
G0 F3000 X88.968 Y142.708
G1 F1500 X89.794 Y143.534 E68.36295
G0 F3000 X90.501 Y143.534
G1 F1500 X88.968 Y142.001 E68.47562
G0 F3000 X88.968 Y141.294
G1 F1500 X91.208 Y143.534 E68.64025
G0 F3000 X91.915 Y143.534
G1 F1500 X88.968 Y140.586 E68.85687
G0 F3000 X88.968 Y139.879
G1 F1500 X92.622 Y143.534 E69.12546
G0 F3000 X93.329 Y143.534
G1 F1500 X88.968 Y139.172 E69.44601
G0 F3000 X88.968 Y138.465
G1 F1500 X94.036 Y143.534 E69.81852
G0 F3000 X94.743 Y143.534
G1 F1500 X88.968 Y137.758 E70.24299
G0 F3000 X88.968 Y137.051
G1 F1500 X95.45 Y143.534 E70.71943
G0 F3000 X96.158 Y143.534
G1 F1500 X88.968 Y136.344 E71.24786
G0 F3000 X88.968 Y135.637
G1 F1500 X96.865 Y143.534 E71.82825
G0 F3000 X97.572 Y143.534
G1 F1500 X88.968 Y134.93 E72.4606
G0 F3000 X88.968 Y134.223
G1 F1500 X98.279 Y143.534 E73.14491
G0 F3000 X98.986 Y143.534
G1 F1500 X88.968 Y133.515 E73.88123
G0 F3000 X88.968 Y132.808
G1 F1500 X99.693 Y143.534 E74.6695
G0 F3000 X100.4 Y143.534
G1 F1500 X99.237 Y142.371 E74.75497
G0 F3000 X100.05 Y142.477
G1 F1500 X101.107 Y143.534 E74.83266
G0 F3000 X101.814 Y143.534
G1 F1500 X100.665 Y142.384 E74.91714
G0 F3000 X101.189 Y142.202
G1 F1500 X102.521 Y143.534 E75.01504
G0 F3000 X103.229 Y143.534
