;FLAVOR:Marlin
;TIME:2292
;Filament used: 3.36427m
;Layer height: 0.25
;MINX:59.25
;MINY:36.75
;MINZ:0.25
;MAXX:140.75
;MAXY:178.25
;MAXZ:3
;Generated with Cura_SteamEngine 4.1.0
M140 S100
M105
M190 S100
M104 S200
M105
M109 S200
M82 ;absolute extrusion mode
G28 ;Home
G1 Z15.0 F6000 ;Move the platform down 15mm
;Prime the extruder
G92 E0
G1 F200 E3
G92 E0
G92 E0
G92 E0
G1 F1500 E-2.5
;LAYER_COUNT:12
;LAYER:0
M107
G0 F3000 X84.572 Y38.623 Z0.25
;TYPE:SKIRT
G1 F1500 E0
G1 X84.825 Y38.181 E0.02647
G1 X85.144 Y37.783 E0.05297
G1 X85.521 Y37.44 E0.07946
G1 X85.947 Y37.161 E0.10593
G1 X86.411 Y36.951 E0.13239
G1 X86.903 Y36.817 E0.15889
G1 X87.421 Y36.76 E0.18598
G1 X87.742 Y36.751 E0.20267
G1 X87.833 Y36.75 E0.2074
G1 X111.837 Y36.75 E1.45486
G1 X112.534 Y36.76 E1.49108
G1 X113.041 Y36.808 E1.51755
G1 X113.535 Y36.933 E1.54403
G1 X114.003 Y37.135 E1.57052
G1 X114.433 Y37.407 E1.59696
G1 X114.816 Y37.743 E1.62344
G1 X115.142 Y38.135 E1.64994
G1 X115.402 Y38.573 E1.67641
G1 X115.591 Y39.047 E1.70293
G1 X115.703 Y39.54 E1.7292
G1 X115.78 Y40.067 E1.75688
G1 X115.787 Y40.119 E1.75961
G1 X116.01 Y41.842 E1.8499
G1 X116.438 Y44.546 E1.99217
G1 X116.944 Y47.24 E2.13462
G1 X117.521 Y49.904 E2.27628
G1 X118.172 Y52.539 E2.41733
G1 X118.909 Y55.2 E2.56083
G1 X119.709 Y57.801 E2.70225
G1 X120.598 Y60.422 E2.84608
G1 X121.54 Y62.964 E2.98697
G1 X122.564 Y65.503 E3.12924
G1 X123.66 Y68.015 E3.27167
G1 X124.833 Y70.507 E3.41481
G1 X126.056 Y72.924 E3.55558
G1 X127.375 Y75.359 E3.6995
G1 X128.736 Y77.71 E3.84068
G1 X130.169 Y80.032 E3.98248
G1 X131.673 Y82.321 E4.12482
G1 X133.244 Y84.571 E4.26743
G1 X134.877 Y86.774 E4.40994
G1 X136.559 Y88.914 E4.55139
G1 X138.306 Y91.011 E4.69324
G1 X139.928 Y92.858 E4.82098
G1 X140.233 Y93.266 E4.84745
G1 X140.471 Y93.717 E4.87396
G1 X140.635 Y94.199 E4.90041
G1 X140.733 Y94.865 E4.9354
G1 X140.747 Y95.195 E4.95256
G1 X140.75 Y95.333 E4.95974
G1 X140.75 Y119.316 E6.20611
G1 X140.74 Y120.033 E6.24337
G1 X140.693 Y120.541 E6.26989
G1 X140.567 Y121.034 E6.29633
G1 X140.366 Y121.502 E6.3228
G1 X139.935 Y122.129 E6.36234
G1 X139.126 Y123.053 E6.42617
G1 X137.342 Y125.141 E6.56889
G1 X135.622 Y127.272 E6.71121
G1 X133.987 Y129.422 E6.85158
G1 X132.358 Y131.691 E6.99674
G1 X130.845 Y133.932 E7.13726
G1 X129.38 Y136.237 E7.2792
G1 X127.971 Y138.601 E7.42222
G1 X126.637 Y140.992 E7.56451
G1 X125.383 Y143.394 E7.70532
G1 X124.166 Y145.897 E7.84996
G1 X123.047 Y148.376 E7.99131
G1 X121.987 Y150.904 E8.13377
G1 X121.009 Y153.451 E8.27556
G1 X120.103 Y156.015 E8.41688
G1 X119.266 Y158.619 E8.55903
G1 X118.493 Y161.276 E8.70283
G1 X117.809 Y163.902 E8.84386
G1 X117.189 Y166.59 E8.98722
G1 X116.652 Y169.273 E9.12941
G1 X116.192 Y171.959 E9.27104
G1 X115.804 Y174.68 E9.41387
G1 X115.712 Y175.402 E9.4517
G1 X115.608 Y175.901 E9.47819
G1 X115.428 Y176.377 E9.50463
G1 X115.175 Y176.819 E9.5311
G1 X114.856 Y177.217 E9.55761
G1 X114.479 Y177.56 E9.5841
G1 X114.053 Y177.839 E9.61056
G1 X113.589 Y178.049 E9.63703
G1 X113.097 Y178.183 E9.66353
G1 X112.579 Y178.24 E9.69061
G1 X112.258 Y178.249 E9.7073
G1 X112.167 Y178.25 E9.71203
G1 X88.163 Y178.25 E10.95949
G1 X87.466 Y178.24 E10.99572
G1 X86.959 Y178.192 E11.02219
G1 X86.465 Y178.067 E11.04867
G1 X85.997 Y177.865 E11.07516
G1 X85.567 Y177.593 E11.1016
G1 X85.184 Y177.257 E11.12808
G1 X84.858 Y176.865 E11.15457
G1 X84.598 Y176.427 E11.18104
G1 X84.409 Y175.953 E11.20756
G1 X84.297 Y175.46 E11.23384
G1 X84.212 Y174.878 E11.2644
G1 X84.205 Y174.824 E11.26723
G1 X83.991 Y173.167 E11.35406
G1 X83.562 Y170.454 E11.4968
G1 X83.057 Y167.767 E11.63889
G1 X82.477 Y165.089 E11.78129
G1 X81.828 Y162.461 E11.92197
G1 X81.089 Y159.79 E12.06599
G1 X80.294 Y157.207 E12.20644
G1 X79.409 Y154.598 E12.34962
G1 X78.452 Y152.016 E12.49272
G1 X77.436 Y149.498 E12.63383
G1 X76.339 Y146.983 E12.77642
G1 X75.166 Y144.492 E12.91951
G1 X73.944 Y142.076 E13.06022
G1 X72.625 Y139.642 E13.20409
G1 X71.263 Y137.29 E13.34533
G1 X69.826 Y134.961 E13.48756
G1 X68.337 Y132.696 E13.62842
G1 X66.75 Y130.421 E13.77258
G1 X65.123 Y128.226 E13.91457
G1 X63.441 Y126.086 E14.05602
G1 X61.694 Y123.988 E14.1979
G1 X60.068 Y122.138 E14.3259
G1 X59.763 Y121.73 E14.35238
G1 X59.525 Y121.279 E14.37888
G1 X59.361 Y120.797 E14.40534
G1 X59.262 Y120.093 E14.44228
G1 X59.252 Y119.767 E14.45923
G1 X59.25 Y119.667 E14.46443
G1 X59.25 Y95.663 E15.71189
G1 X59.26 Y94.965 E15.74817
G1 X59.308 Y94.458 E15.77464
G1 X59.433 Y93.964 E15.80112
G1 X59.635 Y93.496 E15.82761
G1 X60.065 Y92.871 E15.86704
G1 X60.874 Y91.947 E15.93086
G1 X62.658 Y89.859 E16.07358
G1 X64.378 Y87.728 E16.2159
G1 X66.013 Y85.578 E16.35627
G1 X67.642 Y83.309 E16.50143
G1 X69.155 Y81.068 E16.64195
G1 X70.62 Y78.763 E16.78389
G1 X72.029 Y76.399 E16.92691
G1 X73.363 Y74.008 E17.0692
G1 X74.617 Y71.606 E17.21002
G1 X75.834 Y69.103 E17.35466
G1 X76.953 Y66.624 E17.496
G1 X78.013 Y64.096 E17.63846
G1 X78.991 Y61.549 E17.78025
G1 X79.897 Y58.985 E17.92157
G1 X80.734 Y56.381 E18.06372
G1 X81.507 Y53.724 E18.20753
G1 X82.191 Y51.098 E18.34855
G1 X82.811 Y48.41 E18.49191
G1 X83.348 Y45.727 E18.63411
G1 X83.808 Y43.041 E18.77573
G1 X84.196 Y40.32 E18.91857
G1 X84.288 Y39.598 E18.95639
G1 X84.392 Y39.099 E18.98288
G1 X84.572 Y38.623 E19.00933
G1 F1500 E16.50933
;MESH:Diy Drone base 2 (1).stl
G0 F3000 X86.838 Y40.764
G0 X88.267 Y40.764
G0 X97.825 Y76.424
G0 X97.916 Y76.384
;TYPE:WALL-INNER
G1 F1500 E19.00933
G1 X98.387 Y77.087 E19.05331
G1 X98.934 Y77.494 E19.08874
G1 X99.56 Y77.718 E19.12329
G1 X100.222 Y77.749 E19.15773
G1 X100.865 Y77.589 E19.19217
G1 X101.436 Y77.246 E19.22678
G1 X101.883 Y76.75 E19.26148
G1 X102.166 Y76.149 E19.29601
G1 X102.26 Y75.5 E19.33009
G1 X102.164 Y74.843 E19.36459
G1 X101.874 Y74.237 E19.39951
G1 X101.433 Y73.753 E19.43353
G1 X100.864 Y73.41 E19.46806
G1 X100.214 Y73.251 E19.50284
G1 X99.56 Y73.282 E19.53686
G1 X98.934 Y73.506 E19.57142
G1 X98.401 Y73.903 E19.60595
G1 X98.003 Y74.442 E19.64077
G1 X97.781 Y75.069 E19.67534
G1 X97.752 Y75.73 E19.70973
G1 X97.916 Y76.384 E19.74477
G0 F3000 X97.825 Y76.424
G0 X88.281 Y95.781
G0 X67.076 Y105.325
G0 X67.116 Y105.416
G1 F1500 X66.413 Y105.887 E19.78874
G1 X66.006 Y106.434 E19.82417
G1 X65.782 Y107.06 E19.85873
G1 X65.751 Y107.722 E19.89317
G1 X65.911 Y108.365 E19.9276
G1 X66.254 Y108.936 E19.96222
G1 X66.75 Y109.383 E19.99692
G1 X67.344 Y109.664 E20.03107
G1 X68 Y109.762 E20.06554
G1 X68.664 Y109.661 E20.10044
G1 X69.258 Y109.379 E20.13461
G1 X69.747 Y108.934 E20.16898
G1 X70.089 Y108.366 E20.20343
G1 X70.249 Y107.722 E20.23792
G1 X70.218 Y107.06 E20.27236
G1 X69.994 Y106.435 E20.30686
G1 X69.598 Y105.902 E20.34137
G1 X69.065 Y105.506 E20.37588
G1 X68.44 Y105.282 E20.41038
G1 X67.778 Y105.251 E20.44482
G1 X67.116 Y105.416 E20.48028
G0 F3000 X67.076 Y105.325
G0 X68.447 Y105.243
G0 X88.281 Y119.219
G0 X97.686 Y139.981
G0 X97.783 Y139.96
G1 F1500 X98.109 Y140.743 E20.52436
G1 X98.567 Y141.248 E20.55979
G1 X99.143 Y141.592 E20.59465
G1 X99.779 Y141.749 E20.6287
G1 X100.44 Y141.718 E20.66309
G1 X101.068 Y141.493 E20.69775
G1 X101.603 Y141.091 E20.73253
G1 X101.994 Y140.566 E20.76655
G1 X102.218 Y139.94 E20.8011
G1 X102.249 Y139.278 E20.83554
G1 X102.088 Y138.634 E20.87004
G1 X101.742 Y138.059 E20.90492
G1 X101.255 Y137.62 E20.93899
G1 X100.648 Y137.334 E20.97386
G1 X99.991 Y137.24 E21.00835
G1 X99.335 Y137.339 E21.04283
G1 X98.737 Y137.626 E21.0773
G1 X98.252 Y138.067 E21.11137
G1 X97.908 Y138.644 E21.14628
G1 X97.751 Y139.286 E21.18063
G1 X97.783 Y139.96 E21.21569
G0 F3000 X97.686 Y139.981
G0 X97.871 Y138.629
G0 X111.677 Y119.177
G0 X111.747 Y119.247
G1 F1500 X111.747 Y174.25 E24.07414
G1 X88.253 Y174.25 E25.2951
G1 X88.253 Y119.247 E28.15355
G1 X63.25 Y119.247 E29.45293
G1 X63.25 Y95.753 E30.67389
G1 X88.253 Y95.753 E31.97327
G1 X88.253 Y40.75 E34.83172
G1 X111.747 Y40.75 E36.05268
G1 X111.747 Y95.753 E38.91112
G1 X136.75 Y95.753 E40.2105
G1 X136.75 Y119.247 E41.43146
G1 X111.747 Y119.247 E42.73084
G0 F3000 X111.677 Y119.177
G0 X132.887 Y109.621
G0 X133.916 Y108.772
G0 X134.282 Y107.626
G0 X134.161 Y106.824
G1 F1500 X133.761 Y106.079 E42.77479
G1 X133.256 Y105.621 E42.81022
G1 X132.649 Y105.334 E42.84511
G1 X131.998 Y105.238 E42.87931
G1 X131.336 Y105.339 E42.91411
G1 X130.742 Y105.621 E42.94828
G1 X130.252 Y106.067 E42.98272
G1 X129.908 Y106.644 E43.01763
G1 X129.751 Y107.287 E43.05202
G1 X129.782 Y107.942 E43.0861
G1 X130.01 Y108.572 E43.12092
G1 X130.402 Y109.099 E43.15505
G1 X130.935 Y109.494 E43.18953
G1 X131.567 Y109.719 E43.2244
G1 X132.224 Y109.749 E43.25857
G1 X132.872 Y109.585 E43.29331
G1 X133.435 Y109.246 E43.32747
G1 X133.883 Y108.75 E43.3622
G1 X134.166 Y108.149 E43.39672
G1 X134.261 Y107.499 E43.43086
G1 X134.161 Y106.824 E43.46632
G0 F3000 X133.679 Y106.984
;TYPE:WALL-OUTER
G1 F1500 X133.361 Y106.391 E43.50129
G1 X132.975 Y106.041 E43.52837
G1 X132.503 Y105.818 E43.5555
G1 X131.999 Y105.744 E43.58197
G1 X131.484 Y105.822 E43.60904
G1 X131.024 Y106.041 E43.63552
G1 X130.643 Y106.387 E43.66227
G1 X130.376 Y106.835 E43.68937
G1 X130.254 Y107.335 E43.71612
G1 X130.278 Y107.843 E43.74255
G1 X130.455 Y108.333 E43.76962
G1 X130.759 Y108.741 E43.79606
G1 X131.173 Y109.048 E43.82285
G1 X131.664 Y109.223 E43.84994
G1 X132.173 Y109.246 E43.87642
G1 X132.678 Y109.118 E43.90349
G1 X133.114 Y108.856 E43.92993
G1 X133.462 Y108.47 E43.95693
G1 X133.682 Y108.003 E43.98376
G1 X133.756 Y107.5 E44.01018
G1 X133.679 Y106.984 E44.0373
G0 F3000 X133.561 Y106.764
G0 X134.09 Y106.481
G0 X134.301 Y107.499
G0 X133.916 Y108.772
G0 X132.887 Y109.621
G0 X111.719 Y119.219
G0 X112.247 Y119.747
G1 F1500 X112.247 Y174.75 E46.89575
G1 X87.753 Y174.75 E48.16867
G1 X87.753 Y119.747 E51.02712
G1 X62.75 Y119.747 E52.3265
G1 X62.75 Y95.253 E53.59943
G1 X87.753 Y95.253 E54.89881
G1 X87.753 Y40.25 E57.75726
G1 X112.247 Y40.25 E59.03019
G1 X112.247 Y95.253 E61.88863
G1 X137.25 Y95.253 E63.18801
G1 X137.25 Y119.747 E64.46094
G1 X112.247 Y119.747 E65.76032
G0 F3000 X112.247 Y119.997
G0 X111.647 Y119.997
G0 X98.222 Y138.042
G0 X97.743 Y139.158
G0 X98.278 Y139.849
G1 F1500 X98.537 Y140.471 E65.79534
G1 X98.887 Y140.857 E65.82242
G1 X99.335 Y141.124 E65.84952
G1 X99.828 Y141.246 E65.87591
G1 X100.342 Y141.222 E65.90265
G1 X100.828 Y141.048 E65.92948
G1 X101.245 Y140.735 E65.95658
G1 X101.548 Y140.327 E65.98299
G1 X101.722 Y139.842 E66.00977
G1 X101.746 Y139.328 E66.03651
G1 X101.621 Y138.828 E66.06329
G1 X101.352 Y138.381 E66.0904
G1 X100.975 Y138.041 E66.11679
G1 X100.503 Y137.818 E66.14392
G1 X99.993 Y137.745 E66.17069
G1 X99.484 Y137.822 E66.19744
G1 X99.019 Y138.045 E66.22424
G1 X98.643 Y138.387 E66.25066
G1 X98.376 Y138.835 E66.27776
G1 X98.254 Y139.335 E66.30451
G1 X98.278 Y139.849 E66.33125
G0 F3000 X98.374 Y140.08
G0 X97.82 Y140.31
G0 X88.281 Y119.219
G0 X69.083 Y105.471
G0 X67.904 Y105.219
G0 X67.322 Y105.88
G1 F1500 X66.763 Y106.254 E66.3662
G1 X66.452 Y106.673 E66.39332
G1 X66.278 Y107.158 E66.4201
G1 X66.254 Y107.672 E66.44684
G1 X66.378 Y108.172 E66.47361
G1 X66.644 Y108.614 E66.50042
G1 X67.03 Y108.962 E66.52743
G1 X67.491 Y109.18 E66.55393
G1 X68 Y109.256 E66.58068
G1 X68.516 Y109.178 E66.6078
G1 X68.976 Y108.959 E66.63427
G1 X69.356 Y108.613 E66.66098
G1 X69.622 Y108.172 E66.68775
G1 X69.746 Y107.672 E66.71452
G1 X69.722 Y107.158 E66.74126
G1 X69.548 Y106.673 E66.76804
G1 X69.241 Y106.259 E66.79482
G1 X68.827 Y105.952 E66.82161
G1 X68.342 Y105.778 E66.84839
G1 X67.828 Y105.754 E66.87513
G1 X67.322 Y105.88 E66.90223
G0 F3000 X67.115 Y106.019
G0 X66.782 Y105.52
G0 X88.281 Y95.781
G0 X97.881 Y76.511
G0 X98.38 Y76.178
G1 F1500 X98.754 Y76.737 E66.93718
G1 X99.173 Y77.048 E66.9643
G1 X99.658 Y77.222 E66.99107
G1 X100.172 Y77.246 E67.01782
G1 X100.672 Y77.122 E67.04459
G1 X101.114 Y76.856 E67.0714
G1 X101.462 Y76.47 E67.0984
G1 X101.682 Y76.003 E67.12523
G1 X101.755 Y75.5 E67.15165
G1 X101.68 Y74.99 E67.17844
G1 X101.455 Y74.519 E67.20556
G1 X101.113 Y74.144 E67.23194
G1 X100.671 Y73.878 E67.25875
G1 X100.165 Y73.754 E67.28582
G1 X99.658 Y73.778 E67.3122
G1 X99.173 Y73.952 E67.33898
G1 X98.759 Y74.26 E67.36579
G1 X98.449 Y74.679 E67.39288
G1 X98.277 Y75.165 E67.41967
G1 X98.255 Y75.679 E67.44641
G1 X98.38 Y76.178 E67.47314
G0 F3000 X98.519 Y76.385
G0 X98.02 Y76.718
G0 X97.461 Y76.586
;TYPE:SKIN
G1 F1500 X98.027 Y77.43 E67.52596
G1 X98.7 Y77.931 E67.56956
G1 X99.464 Y78.204 E67.61172
G1 X100.271 Y78.241 E67.6537
G1 X101.055 Y78.047 E67.69568
G1 X101.751 Y77.628 E67.73789
G1 X102.295 Y77.024 E67.78014
G1 X102.64 Y76.292 E67.82219
G1 X102.756 Y75.5 E67.86379
G1 X102.638 Y74.698 E67.90592
G1 X102.285 Y73.96 E67.94843
G1 X101.747 Y73.371 E67.98989
G1 X101.053 Y72.952 E68.03202
G1 X100.261 Y72.759 E68.07439
G1 X99.464 Y72.796 E68.11585
G1 X98.7 Y73.069 E68.15801
G1 X98.05 Y73.554 E68.20016
G1 X97.566 Y74.209 E68.24248
G1 X97.295 Y74.975 E68.28471
G1 X97.26 Y75.779 E68.32653
G1 X97.461 Y76.586 E68.36975
G0 F3000 X88.743 Y96.243
G1 F1500 X88.743 Y41.24 E71.2282
G1 X111.257 Y41.24 E72.39823
G1 X111.257 Y96.243 E75.25668
G1 X136.26 Y96.243 E76.55606
G1 X136.26 Y118.757 E77.72609
G1 X111.257 Y118.757 E79.02547
G1 X111.257 Y173.76 E81.88392
G1 X88.743 Y173.76 E83.05395
G1 X88.743 Y118.757 E85.9124
G1 X63.74 Y118.757 E87.21178
G1 X63.74 Y96.243 E88.3818
G1 X88.743 Y96.243 E89.68118
G0 F3000 X69.949 Y105.551
G1 F1500 X69.298 Y105.069 E89.72328
G1 X68.536 Y104.796 E89.76534
G1 X67.729 Y104.759 E89.80733
G1 X66.914 Y104.961 E89.85096
G1 X66.07 Y105.527 E89.90378
G1 X65.569 Y106.2 E89.94738
G1 X65.296 Y106.964 E89.98954
G1 X65.259 Y107.771 E90.03152
G1 X65.453 Y108.555 E90.0735
G1 X65.872 Y109.251 E90.11572
G1 X66.476 Y109.795 E90.15796
G1 X67.2 Y110.138 E90.19959
G1 X68 Y110.258 E90.24163
G1 X68.809 Y110.135 E90.28416
G1 X69.534 Y109.79 E90.32589
G1 X70.129 Y109.248 E90.36771
G1 X70.547 Y108.556 E90.40973
G1 X70.741 Y107.771 E90.45175
G1 X70.704 Y106.964 E90.49373
G1 X70.431 Y106.202 E90.5358
G1 X69.949 Y105.551 E90.57789
G0 F3000 X88.281 Y119.219
G0 X99.989 Y136.744
G1 F1500 X99.19 Y136.865 E90.61989
G1 X98.461 Y137.215 E90.66192
G1 X97.868 Y137.753 E90.70353
G1 X97.449 Y138.456 E90.74606
G1 X97.259 Y139.239 E90.78793
G1 X97.297 Y140.069 E90.83111
G1 X97.689 Y141.01 E90.88409
G1 X98.253 Y141.632 E90.92772
G1 X98.955 Y142.05 E90.97018
G1 X99.73 Y142.241 E91.01166
G1 X100.536 Y142.204 E91.05359
G1 X101.303 Y141.93 E91.09592
G1 X101.954 Y141.44 E91.13827
G1 X102.431 Y140.8 E91.17975
G1 X102.704 Y140.036 E91.22191
G1 X102.741 Y139.229 E91.26389
G1 X102.545 Y138.444 E91.30594
G1 X102.124 Y137.744 E91.34839
G1 X101.529 Y137.208 E91.39001
G1 X100.791 Y136.86 E91.43241
G1 X99.989 Y136.744 E91.47453
G0 F3000 X111.719 Y119.219
G0 X129.868 Y105.754
G1 F1500 X129.449 Y106.456 E91.51701
G1 X129.259 Y107.24 E91.55894
G1 X129.296 Y108.039 E91.6005
G1 X129.573 Y108.807 E91.64293
G1 X130.052 Y109.45 E91.6846
G1 X130.702 Y109.931 E91.72662
G1 X131.471 Y110.205 E91.76905
G1 X132.275 Y110.241 E91.81087
G1 X133.062 Y110.042 E91.85306
G1 X133.75 Y109.628 E91.89479
G1 X134.295 Y109.024 E91.93707
G1 X134.64 Y108.292 E91.97912
G1 X134.757 Y107.499 E92.02078
G1 X134.633 Y106.667 E92.0645
G1 X134.153 Y105.773 E92.11723
G1 X133.531 Y105.209 E92.16086
G1 X132.792 Y104.86 E92.20334
G1 X131.996 Y104.742 E92.24516
G1 X131.191 Y104.865 E92.28748
G1 X130.466 Y105.21 E92.3292
G1 X129.868 Y105.754 E92.37122
G0 F3000 X111.719 Y95.781
G0 X111.031 Y41.734
G1 F1500 X110.761 Y41.465 E92.39102
G0 F3000 X110.054 Y41.465
G1 F1500 X111.031 Y42.441 E92.46279
G0 F3000 X111.031 Y43.149
G1 F1500 X109.347 Y41.465 E92.58656
G0 F3000 X108.64 Y41.465
G1 F1500 X111.031 Y43.856 E92.76228
G0 F3000 X111.031 Y44.563
