;FLAVOR:Marlin
;TIME:2875
;Filament used: 4.14191m
;Layer height: 0.25
;MINX:66.5
;MINY:59.5
;MINZ:0.25
;MAXX:133.5
;MAXY:155.5
;MAXZ:6
;Generated with Cura_SteamEngine 4.1.0
M140 S100
M105
M190 S100
M104 S200
M105
M109 S200
M82 ;absolute extrusion mode
G28 ;Home
G1 Z15.0 F6000 ;Move the platform down 15mm
;Prime the extruder
G92 E0
G1 F200 E3
G92 E0
G92 E0
G92 E0
G1 F1500 E-2.5
;LAYER_COUNT:24
;LAYER:0
M107
G0 F3000 X68.763 Y62.096 Z0.25
;TYPE:SKIRT
G1 F1500 E0
G1 X68.997 Y61.855 E0.01746
G1 X69.165 Y61.699 E0.02937
G1 X69.296 Y61.584 E0.03843
G1 X69.649 Y61.29 E0.0623
G1 X69.963 Y61.059 E0.08256
G1 X70.57 Y60.666 E0.12014
G1 X70.856 Y60.501 E0.1373
G1 X71.204 Y60.323 E0.15762
G1 X71.473 Y60.2 E0.17299
G1 X71.981 Y59.996 E0.20144
G1 X72.326 Y59.879 E0.22037
G1 X72.572 Y59.811 E0.23363
G1 X72.706 Y59.777 E0.24082
G1 X73.117 Y59.682 E0.26274
G1 X73.516 Y59.616 E0.28376
G1 X74.283 Y59.537 E0.32383
G1 X74.54 Y59.521 E0.33721
G1 X75.31 Y59.503 E0.37724
G1 X75.386 Y59.502 E0.38119
G1 X91.572 Y59.5 E1.22236
G1 X91.618 Y59.5 E1.22475
G1 X92.388 Y59.511 E1.26477
G1 X92.535 Y59.517 E1.27241
G1 X93.117 Y59.552 E1.30271
G1 X95.871 Y59.7 E1.44604
G1 X98.623 Y59.771 E1.58911
G1 X101.372 Y59.764 E1.73197
G1 X104.086 Y59.681 E1.87308
G1 X105.58 Y59.592 E1.95086
G1 X105.596 Y59.591 E1.95169
G1 X106.997 Y59.515 E2.02461
G1 X107.069 Y59.512 E2.02835
G1 X107.351 Y59.503 E2.04302
G1 X107.455 Y59.501 E2.04842
G1 X124.165 Y59.5 E2.91682
G1 X124.212 Y59.5 E2.91927
G1 X125.046 Y59.512 E2.96261
G1 X125.125 Y59.514 E2.96672
G1 X125.513 Y59.529 E2.9869
G1 X125.609 Y59.535 E2.9919
G1 X126.178 Y59.574 E3.02154
G1 X126.641 Y59.639 E3.04584
G1 X127.239 Y59.768 E3.07763
G1 X127.346 Y59.793 E3.08334
G1 X127.565 Y59.848 E3.09507
G1 X127.898 Y59.951 E3.11319
G1 X128.123 Y60.034 E3.12565
G1 X128.275 Y60.094 E3.13414
G1 X128.776 Y60.308 E3.16246
G1 X129.098 Y60.467 E3.18112
G1 X129.321 Y60.593 E3.19443
G1 X129.445 Y60.667 E3.20193
G1 X129.88 Y60.939 E3.2286
G1 X130.18 Y61.151 E3.24769
G1 X130.395 Y61.322 E3.26196
G1 X130.504 Y61.413 E3.26934
G1 X130.909 Y61.765 E3.29723
G1 X131.189 Y62.04 E3.31762
G1 X131.338 Y62.205 E3.32918
G1 X131.428 Y62.309 E3.33633
G1 X131.791 Y62.747 E3.36589
G1 X132.001 Y63.03 E3.3842
G1 X132.137 Y63.236 E3.39703
G1 X132.22 Y63.368 E3.40513
G1 X132.439 Y63.737 E3.42743
G1 X132.618 Y64.086 E3.44782
G1 X132.891 Y64.706 E3.48302
G1 X133.002 Y64.993 E3.49902
G1 X133.138 Y65.403 E3.52146
G1 X133.221 Y65.7 E3.53749
G1 X133.318 Y66.123 E3.56004
G1 X133.382 Y66.512 E3.58053
G1 X133.462 Y67.279 E3.62061
G1 X133.479 Y67.537 E3.63405
G1 X133.497 Y68.281 E3.67272
G1 X133.498 Y68.36 E3.67683
G1 X133.5 Y145.537 E7.68764
G1 X133.5 Y146.589 E7.74231
G1 X133.49 Y147.294 E7.77895
G1 X133.486 Y147.407 E7.78483
G1 X133.473 Y147.672 E7.79861
G1 X133.463 Y147.811 E7.80586
G1 X133.425 Y148.223 E7.82736
G1 X133.367 Y148.607 E7.84754
G1 X133.222 Y149.283 E7.88347
G1 X133.141 Y149.586 E7.89977
G1 X133.016 Y149.979 E7.9212
G1 X132.908 Y150.269 E7.93728
G1 X132.693 Y150.773 E7.96576
G1 X132.531 Y151.101 E7.98477
G1 X132.404 Y151.325 E7.99815
G1 X132.331 Y151.448 E8.00559
G1 X132.064 Y151.874 E8.03171
G1 X131.866 Y152.156 E8.04962
G1 X131.69 Y152.38 E8.06443
G1 X131.587 Y152.504 E8.0728
G1 X131.235 Y152.909 E8.10069
G1 X130.96 Y153.189 E8.12109
G1 X130.795 Y153.338 E8.13264
G1 X130.691 Y153.428 E8.13979
G1 X130.253 Y153.791 E8.16935
G1 X129.973 Y153.999 E8.18748
G1 X129.769 Y154.134 E8.20019
G1 X129.637 Y154.217 E8.20829
G1 X129.269 Y154.436 E8.23055
G1 X128.915 Y154.618 E8.25123
G1 X128.292 Y154.892 E8.2866
G1 X128.185 Y154.937 E8.29264
G1 X127.999 Y155.011 E8.30304
G1 X127.661 Y155.124 E8.32156
G1 X127.425 Y155.189 E8.33428
G1 X127.294 Y155.223 E8.34132
G1 X126.883 Y155.318 E8.36324
G1 X126.484 Y155.384 E8.38426
G1 X125.717 Y155.463 E8.42433
G1 X125.46 Y155.479 E8.43771
G1 X124.692 Y155.497 E8.47763
G1 X124.616 Y155.498 E8.48158
G1 X75.459 Y155.5 E11.03622
G1 X75.413 Y155.5 E11.03861
G1 X74.71 Y155.49 E11.07515
G1 X74.594 Y155.486 E11.08118
G1 X74.313 Y155.472 E11.0958
G1 X74.176 Y155.462 E11.10294
G1 X73.776 Y155.425 E11.12382
G1 X73.393 Y155.367 E11.14395
G1 X72.717 Y155.222 E11.17988
G1 X72.409 Y155.139 E11.19646
G1 X72.012 Y155.012 E11.21812
G1 X71.725 Y154.906 E11.23402
G1 X71.224 Y154.692 E11.26233
G1 X70.903 Y154.533 E11.28095
G1 X70.678 Y154.406 E11.29437
G1 X70.545 Y154.327 E11.30241
G1 X70.108 Y154.052 E11.32924
G1 X69.822 Y153.849 E11.34747
G1 X69.611 Y153.682 E11.36146
G1 X69.495 Y153.586 E11.36928
G1 X69.087 Y153.231 E11.39739
G1 X68.806 Y152.955 E11.41786
G1 X68.66 Y152.793 E11.42919
G1 X68.57 Y152.689 E11.43634
G1 X68.205 Y152.248 E11.46609
G1 X67.997 Y151.966 E11.4843
G1 X67.863 Y151.763 E11.49694
G1 X67.78 Y151.632 E11.505
G1 X67.561 Y151.263 E11.5273
G1 X67.382 Y150.914 E11.54768
G1 X67.109 Y150.294 E11.58289
G1 X67.063 Y150.185 E11.58904
G1 X66.989 Y149.999 E11.59944
G1 X66.876 Y149.661 E11.61796
G1 X66.811 Y149.425 E11.63068
G1 X66.777 Y149.294 E11.63771
G1 X66.682 Y148.883 E11.65964
G1 X66.616 Y148.484 E11.68065
G1 X66.537 Y147.717 E11.72073
G1 X66.521 Y147.458 E11.73421
G1 X66.503 Y146.669 E11.77523
G1 X66.502 Y146.595 E11.77907
G1 X66.5 Y69.41 E15.7903
G1 X66.5 Y68.411 E15.84221
G1 X66.51 Y67.705 E15.87891
G1 X66.515 Y67.567 E15.88608
G1 X66.532 Y67.268 E15.90165
G1 X66.541 Y67.149 E15.90785
G1 X66.577 Y66.765 E15.92789
G1 X66.637 Y66.379 E15.94819
G1 X66.792 Y65.664 E15.98621
G1 X66.93 Y65.198 E16.01147
G1 X67.211 Y64.459 E16.05256
G1 X67.363 Y64.119 E16.07191
G1 X67.537 Y63.783 E16.09158
G1 X67.668 Y63.553 E16.10533
G1 X67.941 Y63.117 E16.13207
G1 X68.15 Y62.822 E16.15086
G1 X68.323 Y62.604 E16.16532
G1 X68.424 Y62.483 E16.17351
G1 X68.763 Y62.096 E16.20025
G1 F1500 E13.70025
;MESH:Pi_Base.stl
G0 F3000 X70.655 Y63.844
G0 X71.752 Y64.771
G0 X76.019 Y66.217
G0 X77.013 Y66.908
G0 X76.934 Y66.968
;TYPE:WALL-INNER
G1 F1500 E16.20025
G1 X76.408 Y66.464 E16.23811
G1 X76.005 Y66.254 E16.26172
G1 X75.605 Y66.137 E16.28338
G1 X75.179 Y66.1 E16.3056
G1 X74.762 Y66.14 E16.32737
G1 X74.338 Y66.266 E16.35036
G1 X73.733 Y66.665 E16.38802
G1 X73.446 Y67.014 E16.41151
G1 X73.253 Y67.376 E16.43282
G1 X73.137 Y67.776 E16.45447
G1 X73.1 Y68.2 E16.47659
G1 X73.14 Y68.618 E16.49841
G1 X73.267 Y69.049 E16.52176
G1 X73.662 Y69.661 E16.55961
G1 X74 Y69.951 E16.58276
G1 X74.361 Y70.151 E16.60421
G1 X74.763 Y70.277 E16.6261
G1 X75.179 Y70.317 E16.64782
G1 X75.613 Y70.278 E16.67047
G1 X76.018 Y70.153 E16.69249
G1 X76.414 Y69.94 E16.71586
G1 X76.933 Y69.421 E16.754
G1 X77.154 Y69.017 E16.77794
G1 X77.277 Y68.613 E16.79988
G1 X77.318 Y68.18 E16.82249
G1 X77.276 Y67.764 E16.84421
G1 X77.151 Y67.362 E16.86609
G1 X76.934 Y66.968 E16.88947
G0 F3000 X77.013 Y66.908
G0 X92.838 Y65.57
G0 X92.908 Y65.5
G1 F1500 X106.908 Y65.5 E17.61703
G1 X106.908 Y63.842 E17.7032
G1 X106.927 Y63.678 E17.71178
G1 X106.948 Y63.627 E17.71465
G1 X106.987 Y63.577 E17.71794
G1 X107.038 Y63.538 E17.72128
G1 X107.095 Y63.515 E17.72447
G1 X107.209 Y63.5 E17.73045
G1 X124.852 Y63.5 E18.64734
G1 X125.909 Y63.555 E18.70234
G1 X126.546 Y63.706 E18.73636
G1 X127.164 Y63.959 E18.77107
G1 X127.736 Y64.307 E18.80586
G1 X128.256 Y64.748 E18.8413
G1 X128.687 Y65.253 E18.8758
G1 X129.022 Y65.8 E18.90913
G1 X129.283 Y66.424 E18.94428
G1 X129.44 Y67.071 E18.97888
G1 X129.498 Y67.76 E19.01482
G1 X129.5 Y145.54 E23.05696
G1 X129.5 Y147.229 E23.14474
G1 X129.447 Y147.895 E23.17946
G1 X129.294 Y148.546 E23.21421
G1 X129.041 Y149.164 E23.24892
G1 X128.693 Y149.736 E23.28371
G1 X128.25 Y150.259 E23.31933
G1 X127.748 Y150.687 E23.35362
G1 X127.2 Y151.022 E23.38699
G1 X126.576 Y151.283 E23.42215
G1 X125.925 Y151.441 E23.45696
G1 X125.241 Y151.498 E23.49263
G1 X74.771 Y151.5 E26.1155
G1 X74.105 Y151.447 E26.15022
G1 X73.454 Y151.294 E26.18498
G1 X72.836 Y151.041 E26.21968
G1 X72.264 Y150.693 E26.25448
G1 X71.741 Y150.25 E26.2901
G1 X71.313 Y149.748 E26.32438
G1 X70.978 Y149.2 E26.35776
G1 X70.717 Y148.576 E26.39291
G1 X70.559 Y147.925 E26.42772
G1 X70.502 Y147.241 E26.46339
G1 X70.5 Y69.407 E30.50835
G1 X70.5 Y67.764 E30.59373
G1 X70.554 Y67.088 E30.62897
G1 X70.705 Y66.457 E30.66269
G1 X70.959 Y65.836 E30.69756
G1 X71.305 Y65.268 E30.73212
G1 X71.738 Y64.757 E30.76693
G1 X72.244 Y64.323 E30.80158
G1 X72.806 Y63.976 E30.8359
G1 X73.425 Y63.717 E30.87077
G1 X74.075 Y63.559 E30.90553
G1 X74.759 Y63.502 E30.9412
G1 X92.262 Y63.5 E31.85082
G1 X92.748 Y63.526 E31.87611
G1 X92.78 Y63.54 E31.87793
G1 X92.831 Y63.579 E31.88126
G1 X92.868 Y63.628 E31.88445
G1 X92.891 Y63.682 E31.8875
G1 X92.908 Y63.842 E31.89587
G1 X92.908 Y65.5 E31.98203
G0 F3000 X92.838 Y65.57
G0 X125.109 Y66.088
G0 X126.325 Y66.646
G0 X126.253 Y66.714
G1 F1500 X125.894 Y66.435 E32.00566
G1 X125.534 Y66.252 E32.02665
G1 X125.104 Y66.127 E32.04992
G1 X124.339 Y66.127 E32.08967
G1 X123.901 Y66.261 E32.11348
G1 X123.542 Y66.451 E32.13459
G1 X123.23 Y66.709 E32.15563
G1 X122.976 Y67.024 E32.17666
G1 X122.788 Y67.383 E32.19772
G1 X122.663 Y67.805 E32.22059
G1 X122.663 Y68.576 E32.26066
G1 X122.793 Y69.015 E32.28445
G1 X122.998 Y69.409 E32.30753
G1 X123.506 Y69.936 E32.34557
G1 X123.898 Y70.151 E32.36881
G1 X124.298 Y70.277 E32.3906
G1 X124.717 Y70.317 E32.41248
G1 X125.161 Y70.275 E32.43565
G1 X125.565 Y70.148 E32.45766
G1 X125.926 Y69.95 E32.47906
G1 X126.268 Y69.665 E32.50219
G1 X126.673 Y69.061 E32.53999
G1 X126.812 Y68.618 E32.56412
G1 X126.853 Y68.18 E32.58698
G1 X126.809 Y67.754 E32.60923
G1 X126.672 Y67.319 E32.63294
G1 X126.253 Y66.714 E32.67118
G0 F3000 X126.325 Y66.646
G0 X126.848 Y67.746
G0 X122.624 Y125.861
G0 X122.703 Y126.907
G0 X123.198 Y127.719
G1 F1500 X123.546 Y128.012 E32.69482
G1 X123.905 Y128.208 E32.71608
G1 X124.299 Y128.333 E32.73756
G1 X124.716 Y128.372 E32.75933
G1 X125.16 Y128.33 E32.7825
G1 X125.562 Y128.204 E32.8044
G1 X125.922 Y128.008 E32.8257
G1 X126.237 Y127.747 E32.84696
G1 X126.496 Y127.432 E32.86815
G1 X126.692 Y127.067 E32.88968
G1 X126.813 Y126.666 E32.91145
G1 X126.855 Y126.238 E32.9338
G1 X126.81 Y125.813 E32.95601
G1 X126.686 Y125.413 E32.97777
G1 X126.483 Y125.051 E32.99934
G1 X126.196 Y124.716 E33.02227
G1 X125.583 Y124.323 E33.06011
G1 X125.144 Y124.193 E33.0839
G1 X124.718 Y124.154 E33.10613
G1 X124.301 Y124.196 E33.12791
G1 X123.906 Y124.312 E33.14931
G1 X123.512 Y124.522 E33.17251
G1 X123.002 Y125.032 E33.20999
G1 X122.788 Y125.436 E33.23375
G1 X122.663 Y125.866 E33.25702
G1 X122.663 Y126.627 E33.29657
G1 X122.801 Y127.103 E33.32233
G1 X123.198 Y127.719 E33.36041
G0 F3000 X123.123 Y127.785
G0 X75.233 Y124.113
G0 X74.129 Y124.396
G0 X73.465 Y125.033
G1 F1500 X73.253 Y125.437 E33.38412
G1 X73.127 Y125.859 E33.40701
G1 X73.127 Y126.63 E33.44708
G1 X73.266 Y127.102 E33.47265
G1 X73.66 Y127.714 E33.51048
G1 X74.002 Y128.007 E33.53388
G1 X74.363 Y128.207 E33.55533
G1 X74.765 Y128.332 E33.57721
G1 X75.179 Y128.372 E33.59882
G1 X75.616 Y128.333 E33.62162
G1 X76.024 Y128.206 E33.64383
G1 X76.388 Y128.008 E33.66536
G1 X76.73 Y127.722 E33.68853
G1 X77.136 Y127.12 E33.72627
G1 X77.276 Y126.673 E33.75061
G1 X77.32 Y126.243 E33.77307
G1 X77.276 Y125.813 E33.79554
G1 X77.146 Y125.408 E33.81764
G1 X76.928 Y125.017 E33.84091
G1 X76.403 Y124.513 E33.87873
G1 X75.969 Y124.291 E33.90406
G1 X75.232 Y124.152 E33.94304
G1 X74.771 Y124.193 E33.96709
G1 X74.371 Y124.312 E33.98878
G1 X73.976 Y124.522 E34.01203
G1 X73.465 Y125.033 E34.04958
G0 F3000 X73.872 Y125.333
;TYPE:WALL-OUTER
G1 F1500 X73.718 Y125.626 E34.06679
G1 X73.627 Y125.932 E34.08338
G1 X73.627 Y126.558 E34.11591
G1 X73.725 Y126.892 E34.134
G1 X74.041 Y127.382 E34.1643
G1 X74.289 Y127.594 E34.18126
G1 X74.561 Y127.745 E34.19742
G1 X74.864 Y127.839 E34.21391
G1 X75.181 Y127.87 E34.23046
G1 X75.518 Y127.84 E34.24805
G1 X75.828 Y127.743 E34.26493
G1 X76.106 Y127.592 E34.28137
G1 X76.355 Y127.384 E34.29823
G1 X76.681 Y126.901 E34.32851
G1 X76.784 Y126.572 E34.34643
G1 X76.817 Y126.243 E34.36361
G1 X76.784 Y125.916 E34.38069
G1 X76.685 Y125.608 E34.39751
G1 X76.528 Y125.326 E34.41428
G1 X76.11 Y124.925 E34.44438
G1 X75.805 Y124.769 E34.46218
G1 X75.208 Y124.656 E34.49376
G1 X74.865 Y124.687 E34.51166
G1 X74.561 Y124.777 E34.52814
G1 X74.277 Y124.928 E34.54485
G1 X73.872 Y125.333 E34.57462
G0 F3000 X73.756 Y125.554
G0 X73.226 Y125.275
G0 X73.953 Y124.49
G0 X75.029 Y124.132
G0 X123.191 Y127.843
G0 X123.578 Y127.385
G1 F1500 X123.83 Y127.597 E34.59173
G1 X124.102 Y127.746 E34.60785
G1 X124.399 Y127.84 E34.62404
G1 X124.716 Y127.87 E34.64059
G1 X125.06 Y127.837 E34.65854
G1 X125.366 Y127.741 E34.67521
G1 X125.641 Y127.592 E34.69147
G1 X125.881 Y127.393 E34.70767
G1 X126.079 Y127.152 E34.72388
G1 X126.228 Y126.875 E34.74022
G1 X126.32 Y126.569 E34.75683
G1 X126.352 Y126.24 E34.77401
G1 X126.318 Y125.914 E34.79104
G1 X126.224 Y125.612 E34.80748
G1 X126.071 Y125.339 E34.82374
G1 X125.864 Y125.097 E34.84029
G1 X125.373 Y124.782 E34.87061
G1 X125.049 Y124.686 E34.88817
G1 X124.721 Y124.656 E34.90529
G1 X124.397 Y124.689 E34.92221
G1 X124.096 Y124.777 E34.93851
G1 X123.813 Y124.928 E34.95518
G1 X123.409 Y125.332 E34.98487
G1 X123.254 Y125.625 E35.0021
G1 X123.163 Y125.937 E35.01899
G1 X123.163 Y126.556 E35.05116
G1 X123.261 Y126.893 E35.0694
G1 X123.578 Y127.385 E35.09981
G0 F3000 X123.769 Y127.546
G0 X123.383 Y128.005
G0 X122.765 Y127.119
G0 X122.624 Y125.861
G0 X126.893 Y68.18
G0 X126.254 Y66.589
G0 X125.886 Y67.062
G1 F1500 X125.625 Y66.859 E35.117
G1 X125.349 Y66.719 E35.13308
G1 X125.033 Y66.627 E35.15018
G1 X124.414 Y66.627 E35.18235
G1 X124.093 Y66.725 E35.19979
G1 X123.821 Y66.869 E35.21579
G1 X123.587 Y67.062 E35.23155
G1 X123.396 Y67.299 E35.24737
G1 X123.254 Y67.571 E35.26332
G1 X123.163 Y67.878 E35.27996
G1 X123.163 Y68.503 E35.31244
G1 X123.259 Y68.827 E35.33
G1 X123.408 Y69.114 E35.3468
G1 X123.813 Y69.534 E35.37713
G1 X124.095 Y69.689 E35.39385
G1 X124.398 Y69.784 E35.41035
G1 X124.717 Y69.815 E35.42701
G1 X125.061 Y69.782 E35.44497
G1 X125.368 Y69.686 E35.46168
G1 X125.643 Y69.535 E35.47799
G1 X125.893 Y69.327 E35.49489
G1 X126.217 Y68.843 E35.52516
G1 X126.319 Y68.518 E35.54286
G1 X126.351 Y68.182 E35.5604
G1 X126.317 Y67.856 E35.57743
G1 X126.218 Y67.541 E35.59459
G1 X125.886 Y67.062 E35.62488
G0 F3000 X125.689 Y66.909
G0 X126.057 Y66.435
G0 X125.109 Y66.088
G0 X92.88 Y65.528
G0 X93.408 Y65
G1 F1500 X106.408 Y65 E36.30048
G1 X106.408 Y63.811 E36.36227
G1 X106.438 Y63.55 E36.37592
G1 X106.513 Y63.372 E36.38596
G1 X106.631 Y63.22 E36.39596
G1 X106.788 Y63.101 E36.4062
G1 X106.968 Y63.027 E36.41631
G1 X107.175 Y63 E36.42716
G1 X124.859 Y63 E37.34618
G1 X125.984 Y63.059 E37.40473
G1 X126.7 Y63.228 E37.44296
G1 X127.387 Y63.51 E37.48155
G1 X128.027 Y63.899 E37.52047
G1 X128.612 Y64.395 E37.56033
G1 X129.091 Y64.956 E37.59867
G1 X129.469 Y65.573 E37.63627
G1 X129.76 Y66.27 E37.67552
G1 X129.935 Y66.988 E37.71393
G1 X129.998 Y67.742 E37.75325
G1 X130 Y145.54 E41.79633
G1 X130 Y147.243 E41.88484
G1 X129.942 Y147.978 E41.92315
G1 X129.772 Y148.7 E41.9617
G1 X129.49 Y149.387 E42.00029
G1 X129.101 Y150.027 E42.03922
G1 X128.605 Y150.612 E42.07907
G1 X128.041 Y151.093 E42.1176
G1 X127.427 Y151.469 E42.15501
G1 X126.73 Y151.76 E42.19427
G1 X126.008 Y151.936 E42.23289
G1 X125.258 Y151.998 E42.272
G1 X74.757 Y152 E44.89648
G1 X74.022 Y151.942 E44.9348
G1 X73.3 Y151.772 E44.97334
G1 X72.613 Y151.49 E45.01194
G1 X71.973 Y151.101 E45.05086
G1 X71.388 Y150.605 E45.09072
G1 X70.907 Y150.041 E45.12924
G1 X70.531 Y149.427 E45.16666
G1 X70.24 Y148.73 E45.20591
G1 X70.064 Y148.008 E45.24453
G1 X70.002 Y147.258 E45.28364
G1 X70 Y69.407 E49.32947
G1 X70 Y67.754 E49.41538
G1 X70.059 Y67.007 E49.45432
G1 X70.229 Y66.299 E49.49216
