;FLAVOR:Marlin
;TIME:909
;Filament used: 1.25964m
;Layer height: 0.25
;MINX:86.25
;MINY:66.75
;MINZ:0.25
;MAXX:113.75
;MAXY:148.25
;MAXZ:12
;Generated with Cura_SteamEngine 4.1.0
M140 S100
M105
M190 S100
M104 S200
M105
M109 S200
M82 ;absolute extrusion mode
G28 ;Home
G1 Z15.0 F6000 ;Move the platform down 15mm
;Prime the extruder
G92 E0
G1 F200 E3
G92 E0
G92 E0
G92 E0
G1 F1500 E-2.5
;LAYER_COUNT:48
;LAYER:0
M107
G0 F3000 X86.91 Y68.398 Z0.25
;TYPE:SKIRT
G1 F1500 E0
G1 X87.25 Y67.969 E0.02845
G1 X87.649 Y67.595 E0.05687
G1 X88.098 Y67.282 E0.08531
G1 X88.588 Y67.038 E0.11376
G1 X89.109 Y66.869 E0.14222
G1 X89.904 Y66.76 E0.18393
G1 X90.225 Y66.751 E0.20061
G1 X90.33 Y66.75 E0.20607
G1 X109.347 Y66.75 E1.19437
G1 X110.045 Y66.76 E1.23064
G1 X110.59 Y66.808 E1.25908
G1 X111.122 Y66.935 E1.2875
G1 X111.631 Y67.138 E1.31598
G1 X112.104 Y67.412 E1.34439
G1 X112.533 Y67.753 E1.37287
G1 X112.907 Y68.152 E1.40129
G1 X113.219 Y68.602 E1.42974
G1 X113.463 Y69.092 E1.45819
G1 X113.632 Y69.613 E1.48666
G1 X113.74 Y70.405 E1.5282
G1 X113.749 Y70.725 E1.54483
G1 X113.75 Y70.83 E1.55029
G1 X113.75 Y143.81 E5.34299
G1 X113.741 Y144.537 E5.38077
G1 X113.694 Y145.083 E5.40925
G1 X113.568 Y145.616 E5.43771
G1 X113.367 Y146.124 E5.4661
G1 X113.093 Y146.598 E5.49456
G1 X112.753 Y147.027 E5.523
G1 X112.354 Y147.402 E5.55146
G1 X111.905 Y147.716 E5.57993
G1 X111.416 Y147.96 E5.60834
G1 X110.895 Y148.13 E5.63682
G1 X110.096 Y148.24 E5.67873
G1 X109.775 Y148.249 E5.69542
G1 X109.67 Y148.25 E5.70088
G1 X90.659 Y148.25 E6.68886
G1 X89.961 Y148.241 E6.72514
G1 X89.415 Y148.194 E6.75362
G1 X88.883 Y148.068 E6.78203
G1 X88.374 Y147.866 E6.81049
G1 X87.9 Y147.592 E6.83894
G1 X87.471 Y147.252 E6.86739
G1 X87.096 Y146.853 E6.89584
G1 X86.783 Y146.404 E6.92429
G1 X86.539 Y145.914 E6.95274
G1 X86.369 Y145.394 E6.98117
G1 X86.26 Y144.592 E7.02323
G1 X86.251 Y144.259 E7.04054
G1 X86.25 Y144.158 E7.04579
G1 X86.25 Y71.123 E10.84134
G1 X86.259 Y70.458 E10.87591
G1 X86.307 Y69.913 E10.90434
G1 X86.433 Y69.38 E10.9328
G1 X86.635 Y68.872 E10.96121
G1 X86.91 Y68.398 E10.98969
G0 F3000 X87.405 Y68.565
G1 F1500 X87.741 Y68.182 E11.01617
G1 X88.132 Y67.856 E11.04263
G1 X88.57 Y67.595 E11.06912
G1 X89.043 Y67.406 E11.09559
G1 X89.54 Y67.293 E11.12208
G1 X89.918 Y67.26 E11.1418
G1 X90.239 Y67.251 E11.15849
G1 X90.33 Y67.25 E11.16322
G1 X109.34 Y67.25 E12.15115
G1 X110.038 Y67.26 E12.18743
G1 X110.545 Y67.308 E12.21389
G1 X111.039 Y67.433 E12.24037
G1 X111.507 Y67.635 E12.26686
G1 X111.937 Y67.907 E12.29331
G1 X112.32 Y68.243 E12.31978
G1 X112.646 Y68.635 E12.34628
G1 X112.906 Y69.073 E12.37275
G1 X113.095 Y69.546 E12.39922
G1 X113.207 Y70.043 E12.4257
G1 X113.24 Y70.419 E12.44531
G1 X113.249 Y70.739 E12.46195
G1 X113.25 Y70.83 E12.46668
G1 X113.25 Y143.804 E16.25906
G1 X113.241 Y144.531 E16.29685
G1 X113.195 Y145.039 E16.32336
G1 X113.07 Y145.533 E16.34984
G1 X112.869 Y146.001 E16.37631
G1 X112.598 Y146.432 E16.40277
G1 X112.262 Y146.816 E16.42928
G1 X111.871 Y147.142 E16.45574
G1 X111.433 Y147.403 E16.48224
G1 X110.961 Y147.593 E16.50868
G1 X110.464 Y147.706 E16.53517
G1 X110.082 Y147.74 E16.5551
G1 X109.761 Y147.749 E16.57179
G1 X109.67 Y147.75 E16.57651
G1 X90.665 Y147.75 E17.56418
G1 X89.967 Y147.741 E17.60046
G1 X89.46 Y147.694 E17.62692
G1 X88.966 Y147.569 E17.65341
G1 X88.498 Y147.368 E17.67987
G1 X88.066 Y147.097 E17.70638
G1 X87.683 Y146.761 E17.73286
G1 X87.357 Y146.37 E17.75931
G1 X87.096 Y145.932 E17.78581
G1 X86.907 Y145.459 E17.81228
G1 X86.793 Y144.962 E17.83878
G1 X86.76 Y144.579 E17.85876
G1 X86.751 Y144.246 E17.87607
G1 X86.75 Y144.158 E17.88064
G1 X86.75 Y71.13 E21.67583
G1 X86.759 Y70.465 E21.71039
G1 X86.806 Y69.958 E21.73686
G1 X86.932 Y69.464 E21.76335
G1 X87.133 Y68.996 E21.78982
G1 X87.405 Y68.565 E21.81631
G1 F1500 E19.31631
;MESH:PI top case (1).stl
G0 F3000 X89.335 Y71.264
G0 X90.764 Y71.264
G0 X98.673 Y77.378
G0 X99.869 Y77.78
G0 X100.703 Y77.651
;TYPE:WALL-INNER
G1 F1500 E21.81631
G1 X101.347 Y77.313 E21.8541
G1 X101.834 Y76.826 E21.8899
G1 X102.158 Y76.17 E21.92792
G1 X102.258 Y75.476 E21.96436
G1 X102.151 Y74.797 E22.00008
G1 X101.811 Y74.149 E22.03811
G1 X101.307 Y73.658 E22.07468
G1 X100.694 Y73.347 E22.1104
G1 X99.976 Y73.241 E22.14812
G1 X99.296 Y73.35 E22.18391
G1 X98.654 Y73.686 E22.22156
G1 X98.166 Y74.174 E22.25743
G1 X97.845 Y74.825 E22.29515
G1 X97.738 Y75.5 E22.33067
G1 X97.85 Y76.204 E22.36771
G1 X98.189 Y76.85 E22.40563
G1 X98.696 Y77.346 E22.44249
G1 X99.327 Y77.655 E22.479
G1 X100 Y77.761 E22.51441
G1 X100.703 Y77.651 E22.55139
G0 F3000 X100.734 Y77.745
G0 X97.637 Y139.505
G0 X97.737 Y139.505
G1 F1500 X97.861 Y140.224 E22.5893
G1 X98.189 Y140.85 E22.62603
G1 X98.693 Y141.342 E22.66263
G1 X99.306 Y141.653 E22.69836
G1 X100.024 Y141.759 E22.73608
G1 X100.704 Y141.65 E22.77187
G1 X101.346 Y141.314 E22.80952
G1 X101.834 Y140.826 E22.84539
G1 X102.155 Y140.175 E22.88311
G1 X102.263 Y139.495 E22.91889
G1 X102.139 Y138.776 E22.95681
G1 X101.814 Y138.153 E22.99333
G1 X101.329 Y137.669 E23.02893
G1 X100.698 Y137.348 E23.06573
G1 X100 Y137.239 E23.10244
G1 X99.322 Y137.344 E23.1381
G1 X98.656 Y137.683 E23.17693
G1 X98.166 Y138.174 E23.21298
G1 X97.845 Y138.825 E23.2507
G1 X97.737 Y139.505 E23.28648
G0 F3000 X97.637 Y139.505
G0 X90.82 Y143.68
G0 X90.75 Y143.75
G1 F1500 X90.75 Y71.25 E27.05423
G1 X109.25 Y71.25 E28.01566
G1 X109.25 Y143.75 E31.78341
G1 X90.75 Y143.75 E32.74484
G0 F3000 X90.25 Y144.25
;TYPE:WALL-OUTER
G1 F1500 X90.25 Y70.75 E36.56455
G1 X109.75 Y70.75 E37.57795
G1 X109.75 Y144.25 E41.39767
G1 X90.25 Y144.25 E42.41106
G0 F3000 X90.25 Y144
G0 X90.82 Y143.68
G0 X98.154 Y138.046
G0 X98.578 Y138.469
G1 F1500 X98.327 Y138.978 E42.44056
G1 X98.244 Y139.502 E42.46813
G1 X98.34 Y140.062 E42.49765
G1 X98.595 Y140.548 E42.52618
G1 X98.987 Y140.931 E42.55466
G1 X99.459 Y141.17 E42.58215
G1 X100.021 Y141.253 E42.61168
G1 X100.544 Y141.169 E42.6392
G1 X101.047 Y140.906 E42.6687
G1 X101.422 Y140.531 E42.69626
G1 X101.673 Y140.022 E42.72576
G1 X101.756 Y139.498 E42.75333
G1 X101.66 Y138.938 E42.78285
G1 X101.406 Y138.453 E42.81131
G1 X101.032 Y138.079 E42.83879
G1 X100.542 Y137.83 E42.86736
G1 X100 Y137.745 E42.89587
G1 X99.478 Y137.826 E42.92332
G1 X98.954 Y138.093 E42.95389
G1 X98.578 Y138.469 E42.98152
G0 F3000 X98.468 Y138.693
G0 X97.931 Y138.428
G0 X102.298 Y75.476
G0 X101.67 Y74.956
G1 F1500 X101.405 Y74.452 E43.01111
G1 X101.013 Y74.069 E43.03959
G1 X100.541 Y73.83 E43.06709
G1 X99.979 Y73.747 E43.09661
G1 X99.456 Y73.831 E43.12414
G1 X98.953 Y74.094 E43.15364
G1 X98.578 Y74.469 E43.1812
G1 X98.327 Y74.978 E43.21069
G1 X98.244 Y75.5 E43.23816
G1 X98.331 Y76.044 E43.26679
G1 X98.595 Y76.548 E43.29636
G1 X98.988 Y76.932 E43.32491
G1 X99.479 Y77.173 E43.35334
G1 X100 Y77.255 E43.38075
G1 X100.544 Y77.17 E43.40936
G1 X101.047 Y76.906 E43.43888
G1 X101.422 Y76.531 E43.46644
G1 X101.674 Y76.02 E43.49605
G1 X101.752 Y75.479 E43.52446
G1 X101.67 Y74.956 E43.55197
G0 F3000 X101.554 Y74.735
G0 X102.085 Y74.457
G0 X102.623 Y74.64
;TYPE:SKIN
G1 F1500 X102.209 Y73.853 E43.59819
G1 X101.595 Y73.255 E43.64273
G1 X100.845 Y72.874 E43.68644
G1 X99.972 Y72.745 E43.73231
G1 X99.139 Y72.879 E43.77615
G1 X98.36 Y73.286 E43.82183
G1 X97.762 Y73.884 E43.86578
G1 X97.373 Y74.675 E43.91159
G1 X97.242 Y75.5 E43.955
G1 X97.379 Y76.361 E44.00031
G1 X97.791 Y77.146 E44.04638
G1 X98.41 Y77.752 E44.0914
G1 X99.178 Y78.127 E44.13582
G1 X100 Y78.257 E44.17907
G1 X100.859 Y78.123 E44.22425
G1 X101.641 Y77.713 E44.27013
G1 X102.238 Y77.116 E44.31401
G1 X102.632 Y76.317 E44.36031
G1 X102.754 Y75.472 E44.40468
G1 X102.623 Y74.64 E44.44845
G0 F3000 X108.76 Y71.74
G1 F1500 X108.76 Y143.26 E48.16527
G1 X91.24 Y143.26 E49.07576
G1 X91.24 Y71.74 E52.79258
G1 X108.76 Y71.74 E53.70308
G0 F3000 X100 Y136.743
G1 F1500 X99.169 Y136.872 E53.74678
G1 X98.364 Y137.281 E53.79371
G1 X97.762 Y137.885 E53.83803
G1 X97.373 Y138.674 E53.88374
G1 X97.241 Y139.509 E53.92767
G1 X97.391 Y140.383 E53.97376
G1 X97.791 Y141.146 E54.01853
G1 X98.405 Y141.745 E54.06311
G1 X99.155 Y142.126 E54.10683
G1 X100.028 Y142.255 E54.15269
G1 X100.861 Y142.121 E54.19653
G1 X101.64 Y141.714 E54.24221
G1 X102.238 Y141.116 E54.28616
G1 X102.627 Y140.325 E54.33197
G1 X102.759 Y139.491 E54.37585
G1 X102.609 Y138.617 E54.42194
G1 X102.214 Y137.859 E54.46636
G1 X101.621 Y137.267 E54.5099
G1 X100.851 Y136.876 E54.55478
G1 X100 Y136.743 E54.59955
G0 F3000 X98.893 Y137.478
G0 X92.122 Y143.034
G1 F1500 X91.464 Y142.375 E54.64794
G0 F3000 X91.464 Y141.668
G1 F1500 X92.829 Y143.034 E54.7483
G0 F3000 X93.536 Y143.034
G1 F1500 X91.464 Y140.961 E54.90062
G0 F3000 X91.464 Y140.254
G1 F1500 X94.243 Y143.034 E55.1049
G0 F3000 X94.951 Y143.034
G1 F1500 X91.464 Y139.547 E55.36118
G0 F3000 X91.464 Y138.84
G1 F1500 X95.658 Y143.034 E55.66942
G0 F3000 X96.365 Y143.034
G1 F1500 X91.464 Y138.133 E56.02962
G0 F3000 X91.464 Y137.426
G1 F1500 X97.072 Y143.034 E56.44178
G0 F3000 X97.779 Y143.034
G1 F1500 X91.464 Y136.719 E56.9059
G0 F3000 X91.464 Y136.011
G1 F1500 X98.486 Y143.034 E57.42202
G0 F3000 X99.193 Y143.034
G1 F1500 X91.464 Y135.304 E57.9901
G0 F3000 X91.464 Y134.597
G1 F1500 X97.145 Y140.279 E58.40766
G0 F3000 X97.024 Y139.45
G1 F1500 X91.464 Y133.89 E58.8163
G0 F3000 X91.464 Y133.183
G1 F1500 X97.12 Y138.839 E59.23199
G0 F3000 X97.3 Y138.312
G1 F1500 X91.464 Y132.476 E59.6609
G0 F3000 X91.464 Y131.769
G1 F1500 X97.534 Y137.839 E60.10702
G0 F3000 X97.865 Y137.463
G1 F1500 X91.464 Y131.062 E60.57746
G0 F3000 X91.464 Y130.355
G1 F1500 X98.218 Y137.109 E61.07385
G0 F3000 X98.681 Y136.865
G1 F1500 X91.464 Y129.648 E61.60426
G0 F3000 X91.464 Y128.94
G1 F1500 X99.167 Y136.644 E62.17043
G0 F3000 X99.779 Y136.549
G1 F1500 X91.464 Y128.233 E62.78158
G0 F3000 X91.464 Y127.526
G1 F1500 X100.535 Y136.598 E63.4483
G1 X100.623 Y136.686
G0 F3000 X101.695 Y137.05
G1 F1500 X91.464 Y126.819 E64.20022
G0 F3000 X91.464 Y126.112
G1 F1500 X108.386 Y143.034 E65.44391
G0 F3000 X108.534 Y142.475
G1 F1500 X91.464 Y125.405 E66.69847
G0 F3000 X91.464 Y124.698
G1 F1500 X108.534 Y141.768 E67.95304
G0 F3000 X108.534 Y141.061
G1 F1500 X91.464 Y123.991 E69.2076
G0 F3000 X91.464 Y123.284
G1 F1500 X108.534 Y140.354 E70.46216
G0 F3000 X108.534 Y139.647
G1 F1500 X91.464 Y122.576 E71.71676
G0 F3000 X91.464 Y121.869
G1 F1500 X108.534 Y138.94 E72.97136
G0 F3000 X108.534 Y138.233
G1 F1500 X91.464 Y121.162 E74.22596
G0 F3000 X91.464 Y120.455
G1 F1500 X108.534 Y137.525 E75.48053
G0 F3000 X108.534 Y136.818
G1 F1500 X91.464 Y119.748 E76.73509
G0 F3000 X91.464 Y119.041
G1 F1500 X108.534 Y136.111 E77.98965
G0 F3000 X108.534 Y135.404
G1 F1500 X91.464 Y118.334 E79.24422
G0 F3000 X91.464 Y117.627
G1 F1500 X108.534 Y134.697 E80.49878
G0 F3000 X108.534 Y133.99
G1 F1500 X91.464 Y116.92 E81.75334
G0 F3000 X91.464 Y116.212
G1 F1500 X108.534 Y133.283 E83.00794
G0 F3000 X108.534 Y132.576
G1 F1500 X91.464 Y115.505 E84.26254
G0 F3000 X91.464 Y114.798
G1 F1500 X108.534 Y131.869 E85.51714
G0 F3000 X108.534 Y131.161
G1 F1500 X91.464 Y114.091 E86.77171
G0 F3000 X91.464 Y113.384
G1 F1500 X108.534 Y130.454 E88.02627
G0 F3000 X108.534 Y129.747
G1 F1500 X91.464 Y112.677 E89.28083
G0 F3000 X91.464 Y111.97
G1 F1500 X108.534 Y129.04 E90.5354
G0 F3000 X108.534 Y128.333
G1 F1500 X91.464 Y111.263 E91.78996
G0 F3000 X91.464 Y110.556
G1 F1500 X108.534 Y127.626 E93.04452
G0 F3000 X108.534 Y126.919
G1 F1500 X91.464 Y109.849 E94.29909
G0 F3000 X91.464 Y109.141
G1 F1500 X108.534 Y126.212 E95.55369
G0 F3000 X108.534 Y125.505
G1 F1500 X91.464 Y108.434 E96.80829
G0 F3000 X91.464 Y107.727
G1 F1500 X108.534 Y124.797 E98.06285
G0 F3000 X108.534 Y124.09
G1 F1500 X91.464 Y107.02 E99.31741
G0 F3000 X91.464 Y106.313
G1 F1500 X108.534 Y123.383 E100.57197
G0 F3000 X108.534 Y122.676
G1 F1500 X91.464 Y105.606 E101.82654
G0 F3000 X91.464 Y104.899
G1 F1500 X108.534 Y121.969 E103.0811
G0 F3000 X108.534 Y121.262
G1 F1500 X91.464 Y104.192 E104.33566
G0 F3000 X91.464 Y103.485
G1 F1500 X108.534 Y120.555 E105.59023
G0 F3000 X108.534 Y119.848
G1 F1500 X91.464 Y102.777 E106.84483
G0 F3000 X91.464 Y102.07
G1 F1500 X108.534 Y119.141 E108.09943
G0 F3000 X108.534 Y118.434
G1 F1500 X91.464 Y101.363 E109.35403
G0 F3000 X91.464 Y100.656
G1 F1500 X108.534 Y117.726 E110.60859
G0 F3000 X108.534 Y117.019
G1 F1500 X91.464 Y99.949 E111.86315
G0 F3000 X91.464 Y99.242
G1 F1500 X108.534 Y116.312 E113.11772
G0 F3000 X108.534 Y115.605
G1 F1500 X91.464 Y98.535 E114.37228
G0 F3000 X91.464 Y97.828
G1 F1500 X108.534 Y114.898 E115.62684
G0 F3000 X108.534 Y114.191
G1 F1500 X91.464 Y97.121 E116.88141
G0 F3000 X91.464 Y96.414
G1 F1500 X108.534 Y113.484 E118.13597
G0 F3000 X108.534 Y112.777
G1 F1500 X91.464 Y95.706 E119.39057
G0 F3000 X91.464 Y94.999
G1 F1500 X108.534 Y112.07 E120.64517
G0 F3000 X108.534 Y111.362
G1 F1500 X91.464 Y94.292 E121.89973
G0 F3000 X91.464 Y93.585
G1 F1500 X108.534 Y110.655 E123.1543
G0 F3000 X108.534 Y109.948
G1 F1500 X91.464 Y92.878 E124.40886
G0 F3000 X91.464 Y92.171
G1 F1500 X108.534 Y109.241 E125.66342
G0 F3000 X108.534 Y108.534
G1 F1500 X91.464 Y91.464 E126.91799
G0 F3000 X91.464 Y90.757
G1 F1500 X108.534 Y107.827 E128.17255
G0 F3000 X108.534 Y107.12
G1 F1500 X91.464 Y90.05 E129.42711
G0 F3000 X91.464 Y89.342
G1 F1500 X108.534 Y106.413 E130.68171
G0 F3000 X108.534 Y105.706
G1 F1500 X91.464 Y88.635 E131.93631
G0 F3000 X91.464 Y87.928
G1 F1500 X108.534 Y104.998 E133.19088
G0 F3000 X108.534 Y104.291
G1 F1500 X91.464 Y87.221 E134.44544
G0 F3000 X91.464 Y86.514
G1 F1500 X108.534 Y103.584 E135.7
G0 F3000 X108.534 Y102.877
G1 F1500 X91.464 Y85.807 E136.95457
G0 F3000 X91.464 Y85.1
G1 F1500 X108.534 Y102.17 E138.20913
G0 F3000 X108.534 Y101.463
G1 F1500 X91.464 Y84.393 E139.46369
G0 F3000 X91.464 Y83.686
G1 F1500 X108.534 Y100.756 E140.71826
G0 F3000 X108.534 Y100.049
G1 F1500 X91.464 Y82.978 E141.97286
G0 F3000 X91.464 Y82.271
G1 F1500 X108.534 Y99.342 E143.22746
G0 F3000 X108.534 Y98.635
G1 F1500 X91.464 Y81.564 E144.48206
G0 F3000 X91.464 Y80.857
G1 F1500 X108.534 Y97.927 E145.73662
G0 F3000 X108.534 Y97.22
G1 F1500 X91.464 Y80.15 E146.99118
G0 F3000 X91.464 Y79.443
G1 F1500 X108.534 Y96.513 E148.24574
G0 F3000 X108.534 Y95.806
G1 F1500 X91.464 Y78.736 E149.50031
G0 F3000 X91.464 Y78.029
G1 F1500 X108.534 Y95.099 E150.75487
G0 F3000 X108.534 Y94.392
G1 F1500 X91.464 Y77.322 E152.00943
G0 F3000 X91.464 Y76.615
G1 F1500 X108.534 Y93.685 E153.264
G0 F3000 X108.534 Y92.978
G1 F1500 X91.464 Y75.907 E154.5186
G0 F3000 X91.464 Y75.2
G1 F1500 X108.534 Y92.271 E155.7732
G0 F3000 X108.534 Y91.563
G1 F1500 X91.464 Y74.493 E157.02776
G0 F3000 X91.464 Y73.786
G1 F1500 X108.534 Y90.856 E158.28232
G0 F3000 X108.534 Y90.149
G1 F1500 X91.464 Y73.079 E159.53689
G0 F3000 X91.464 Y72.372
G1 F1500 X108.534 Y89.442 E160.79145
G0 F3000 X108.534 Y88.735
G1 F1500 X91.764 Y71.965 E162.02397
G0 F3000 X92.471 Y71.965
G1 F1500 X97.408 Y76.902 E162.38681
G1 X97.496 Y76.99
G0 F3000 X97.071 Y75.858
G1 F1500 X93.178 Y71.965 E162.67293
G0 F3000 X93.885 Y71.965
G1 F1500 X97.07 Y75.149 E162.90697
G0 F3000 X97.181 Y74.553
G1 F1500 X94.592 Y71.965 E163.09722
G0 F3000 X95.299 Y71.965
G1 F1500 X97.413 Y74.079 E163.25258
G0 F3000 X97.684 Y73.643
G1 F1500 X96.006 Y71.965 E163.37591
G0 F3000 X96.713 Y71.965
G1 F1500 X98.038 Y73.289 E163.47325
G0 F3000 X98.443 Y72.987
G1 F1500 X97.42 Y71.965 E163.5484
G0 F3000 X98.128 Y71.965
G1 F1500 X98.907 Y72.745 E163.60569
G0 F3000 X99.468 Y72.597
G1 F1500 X98.835 Y71.965 E163.65218
G0 F3000 X99.542 Y71.965
G1 F1500 X100.116 Y72.539 E163.69436
G0 F3000 X100.249 Y71.965
G1 F1500 X100.969 Y72.685 E163.74728
G0 F3000 X100.956 Y71.965
G1 F1500 X108.534 Y79.543 E164.30423
