;FLAVOR:Marlin
;TIME:2930
;Filament used: 4.2147m
;Layer height: 0.25
;MINX:66.5
;MINY:59.5
;MINZ:0.25
;MAXX:133.5
;MAXY:155.5
;MAXZ:6
;Generated with Cura_SteamEngine 4.1.0
M140 S100
M105
M190 S100
M104 S200
M105
M109 S200
M82 ;absolute extrusion mode
G28 ;Home
G1 Z15.0 F6000 ;Move the platform down 15mm
;Prime the extruder
G92 E0
G1 F200 E3
G92 E0
G92 E0
G92 E0
G1 F1500 E-2.5
;LAYER_COUNT:24
;LAYER:0
M107
G0 F3000 X68.767 Y62.089 Z0.25
;TYPE:SKIRT
G1 F1500 E0
G1 X69.04 Y61.811 E0.02025
G1 X69.205 Y61.662 E0.0318
G1 X69.306 Y61.574 E0.03876
G1 X69.743 Y61.211 E0.06829
G1 X70.038 Y60.993 E0.08735
G1 X70.25 Y60.854 E0.10052
G1 X70.378 Y60.775 E0.10834
G1 X70.821 Y60.513 E0.13509
G1 X71.117 Y60.357 E0.15248
G1 X71.354 Y60.248 E0.16603
G1 X71.514 Y60.18 E0.17507
G1 X71.993 Y59.99 E0.20185
G1 X72.31 Y59.883 E0.21924
G1 X72.548 Y59.816 E0.23209
G1 X72.719 Y59.773 E0.24125
G1 X73.179 Y59.67 E0.26575
G1 X73.56 Y59.608 E0.28581
G1 X74.208 Y59.542 E0.31966
G1 X74.302 Y59.533 E0.32457
G1 X74.509 Y59.518 E0.33535
G1 X74.698 Y59.51 E0.34518
G1 X75.411 Y59.5 E0.38224
G1 X124.589 Y59.5 E2.93797
G1 X125.295 Y59.51 E2.97466
G1 X125.433 Y59.515 E2.98184
G1 X125.733 Y59.532 E2.99745
G1 X125.853 Y59.541 E3.00371
G1 X126.236 Y59.577 E3.0237
G1 X126.621 Y59.637 E3.04395
G1 X127.336 Y59.792 E3.08197
G1 X127.675 Y59.885 E3.10024
G1 X128.053 Y60.011 E3.12095
G1 X128.305 Y60.107 E3.13496
G1 X128.795 Y60.317 E3.16267
G1 X129.121 Y60.479 E3.18158
G1 X129.318 Y60.591 E3.19336
G1 X129.443 Y60.665 E3.20091
G1 X129.818 Y60.901 E3.22394
G1 X130.138 Y61.131 E3.24442
G1 X130.711 Y61.597 E3.2828
G1 X130.954 Y61.816 E3.2998
G1 X131.22 Y62.081 E3.31931
G1 X131.427 Y62.307 E3.33524
G1 X131.725 Y62.666 E3.35949
G1 X131.959 Y62.986 E3.38009
G1 X132.363 Y63.615 E3.41894
G1 X132.533 Y63.914 E3.43681
G1 X132.701 Y64.249 E3.45629
G1 X132.814 Y64.499 E3.47055
G1 X132.978 Y64.909 E3.4935
G1 X133.103 Y65.288 E3.51424
G1 X133.281 Y65.964 E3.55056
G1 X133.345 Y66.266 E3.56661
G1 X133.408 Y66.65 E3.58683
G1 X133.444 Y66.958 E3.60295
G1 X133.48 Y67.493 E3.63081
G1 X133.486 Y67.651 E3.63903
G1 X133.497 Y68.242 E3.66975
G1 X133.498 Y68.301 E3.67281
G1 X133.5 Y76.976 E4.12365
G1 X133.5 Y146.589 E7.74136
G1 X133.49 Y147.294 E7.778
G1 X133.485 Y147.432 E7.78518
G1 X133.468 Y147.732 E7.80079
G1 X133.459 Y147.851 E7.807
G1 X133.423 Y148.235 E7.82704
G1 X133.364 Y148.618 E7.84718
G1 X133.211 Y149.326 E7.88482
G1 X133.074 Y149.79 E7.90996
G1 X132.79 Y150.541 E7.95169
G1 X132.642 Y150.875 E7.97068
G1 X132.486 Y151.179 E7.98843
G1 X132.349 Y151.419 E8.0028
G1 X132.095 Y151.825 E8.02768
G1 X131.857 Y152.157 E8.04891
G1 X131.394 Y152.724 E8.08696
G1 X131.154 Y152.987 E8.10546
G1 X130.88 Y153.256 E8.12541
G1 X130.679 Y153.437 E8.13947
G1 X130.337 Y153.721 E8.16257
G1 X130.03 Y153.947 E8.18238
G1 X129.452 Y154.322 E8.21819
G1 X129.2 Y154.47 E8.23338
G1 X128.876 Y154.641 E8.25242
G1 X128.582 Y154.778 E8.26927
G1 X128.107 Y154.971 E8.29592
G1 X127.712 Y155.103 E8.31756
G1 X127.036 Y155.281 E8.35389
G1 X126.722 Y155.347 E8.37057
G1 X126.31 Y155.413 E8.39225
G1 X126.011 Y155.447 E8.40789
G1 X125.452 Y155.484 E8.437
G1 X125.29 Y155.491 E8.44543
G1 X124.735 Y155.5 E8.47428
G1 X108.377 Y155.5 E9.32438
G1 X107.599 Y155.489 E9.36482
G1 X107.448 Y155.483 E9.37267
G1 X106.873 Y155.448 E9.40261
G1 X104.129 Y155.3 E9.54542
G1 X101.377 Y155.229 E9.68849
G1 X98.627 Y155.236 E9.8314
G1 X95.914 Y155.319 E9.97246
G1 X94.42 Y155.408 E10.05024
G1 X94.404 Y155.409 E10.05107
G1 X93.003 Y155.485 E10.12399
G1 X92.931 Y155.488 E10.12773
G1 X92.649 Y155.497 E10.1424
G1 X92.545 Y155.499 E10.1478
G1 X75.835 Y155.5 E11.0162
G1 X75.788 Y155.5 E11.01865
G1 X74.954 Y155.488 E11.06199
G1 X74.875 Y155.486 E11.0661
G1 X74.487 Y155.471 E11.08628
G1 X74.391 Y155.465 E11.09128
G1 X73.822 Y155.426 E11.12092
G1 X73.359 Y155.361 E11.14521
G1 X72.761 Y155.232 E11.17701
G1 X72.651 Y155.206 E11.18288
G1 X72.433 Y155.151 E11.19456
G1 X72.108 Y155.051 E11.21224
G1 X71.871 Y154.964 E11.22536
G1 X71.716 Y154.902 E11.23403
G1 X71.212 Y154.687 E11.26251
G1 X70.873 Y154.519 E11.28217
G1 X70.679 Y154.408 E11.29379
G1 X70.562 Y154.337 E11.3009
G1 X70.168 Y154.089 E11.32509
G1 X69.847 Y153.86 E11.34558
G1 X69.315 Y153.427 E11.38123
G1 X69.077 Y153.212 E11.3979
G1 X68.779 Y152.916 E11.41973
G1 X68.574 Y152.692 E11.43551
G1 X68.221 Y152.269 E11.46414
G1 X68.004 Y151.978 E11.48301
G1 X67.858 Y151.757 E11.49677
G1 X67.774 Y151.623 E11.50499
G1 X67.566 Y151.272 E11.52619
G1 X67.388 Y150.926 E11.54641
G1 X67.086 Y150.241 E11.58532
G1 X66.961 Y149.909 E11.60376
G1 X66.847 Y149.548 E11.62343
G1 X66.778 Y149.294 E11.63711
G1 X66.681 Y148.87 E11.65971
G1 X66.617 Y148.486 E11.67994
G1 X66.537 Y147.727 E11.71961
G1 X66.52 Y147.459 E11.73356
G1 X66.501 Y146.616 E11.77738
G1 X66.5 Y146.543 E11.78118
G1 X66.5 Y68.411 E15.84162
G1 X66.51 Y67.704 E15.87836
G1 X66.515 Y67.566 E15.88554
G1 X66.532 Y67.267 E15.9011
G1 X66.542 Y67.144 E15.90751
G1 X66.588 Y66.659 E15.93283
G1 X66.64 Y66.309 E15.95122
G1 X66.691 Y66.062 E15.96433
G1 X66.725 Y65.915 E15.97217
G1 X66.853 Y65.414 E15.99904
G1 X66.964 Y65.065 E16.01808
G1 X67.068 Y64.791 E16.03331
G1 X67.121 Y64.658 E16.04075
G1 X67.274 Y64.303 E16.06084
G1 X67.448 Y63.958 E16.08092
G1 X67.835 Y63.291 E16.12099
G1 X68.047 Y62.971 E16.14094
G1 X68.276 Y62.666 E16.16076
G1 X68.424 Y62.483 E16.17299
G1 X68.767 Y62.089 E16.20014
G1 F1500 E13.70014
;MESH:Rpi case drone.stl
G0 F3000 X70.225 Y64.354
G0 X71.32 Y65.279
G0 X79.624 Y80.568
G0 X79.53 Y80.599
;TYPE:WALL-INNER
G1 F1500 E16.20014
G1 X79.133 Y79.861 E16.24369
G1 X78.62 Y79.399 E16.27957
G1 X78.028 Y79.12 E16.31358
G1 X77.373 Y79.024 E16.34798
G1 X76.717 Y79.12 E16.38244
G1 X76.114 Y79.405 E16.4171
G1 X75.617 Y79.861 E16.45215
G1 X75.28 Y80.433 E16.48665
G1 X75.124 Y81.074 E16.52094
G1 X75.155 Y81.726 E16.55486
G1 X75.384 Y82.361 E16.58994
G1 X75.776 Y82.884 E16.62391
G1 X76.308 Y83.278 E16.65831
G1 X76.944 Y83.503 E16.69337
G1 X77.595 Y83.533 E16.72724
G1 X78.238 Y83.372 E16.76169
G1 X78.815 Y83.024 E16.7967
G1 X79.255 Y82.538 E16.83077
G1 X79.538 Y81.927 E16.86577
G1 X79.632 Y81.282 E16.89964
G1 X79.53 Y80.599 E16.93553
G0 F3000 X79.624 Y80.568
G0 X79.595 Y81.813
G0 X77.085 Y90.017
G0 X77.005 Y89.958
G1 F1500 X77.212 Y89.563 E16.95871
G1 X77.337 Y89.134 E16.98193
G1 X77.337 Y88.373 E17.02148
G1 X77.199 Y87.896 E17.04728
G1 X76.801 Y87.281 E17.08535
G1 X76.455 Y86.989 E17.10888
G1 X76.105 Y86.796 E17.12965
G1 X75.701 Y86.667 E17.15169
G1 X75.263 Y86.627 E17.17455
G1 X74.838 Y86.671 E17.19675
G1 X74.404 Y86.806 E17.22037
G1 X73.792 Y87.217 E17.25869
G1 X73.504 Y87.568 E17.28228
G1 X73.308 Y87.933 E17.30381
G1 X73.191 Y88.325 E17.32507
G1 X73.145 Y88.759 E17.34775
G1 X73.191 Y89.192 E17.37038
G1 X73.322 Y89.609 E17.3931
G1 X73.65 Y90.111 E17.42426
G1 X74.074 Y90.492 E17.45388
G1 X74.498 Y90.71 E17.47866
G1 X75.23 Y90.847 E17.51736
G1 X75.696 Y90.806 E17.54167
G1 X76.095 Y90.688 E17.5633
G1 X76.49 Y90.476 E17.5866
G1 X77.005 Y89.958 E17.62456
G0 F3000 X77.085 Y90.017
G0 X79.734 Y126.557
G0 X79.635 Y126.555
G1 F1500 X79.532 Y125.872 E17.66045
G1 X79.252 Y125.281 E17.69444
G1 X78.796 Y124.783 E17.72953
G1 X78.224 Y124.446 E17.76403
G1 X77.593 Y124.289 E17.79782
G1 X76.919 Y124.324 E17.8329
G1 X76.294 Y124.553 E17.86749
G1 X75.765 Y124.949 E17.90183
G1 X75.371 Y125.485 E17.9364
G1 X75.154 Y126.113 E17.97093
G1 X75.125 Y126.773 E18.00526
G1 X75.286 Y127.407 E18.03926
G1 X75.633 Y127.982 E18.07416
G1 X76.126 Y128.425 E18.10861
G1 X76.717 Y128.702 E18.14253
G1 X77.373 Y128.8 E18.177
G1 X78.029 Y128.702 E18.21147
G1 X78.631 Y128.418 E18.24606
G1 X79.129 Y127.962 E18.28115
G1 X79.475 Y127.375 E18.31656
G1 X79.635 Y126.555 E18.35998
G0 F3000 X79.734 Y126.557
G0 X74.054 Y145.016
G0 X73.275 Y145.966
G0 X73.152 Y147.254
G0 X73.675 Y148.353
G0 X73.747 Y148.285
G1 F1500 X74.134 Y148.586 E18.38546
G1 X74.817 Y148.858 E18.42366
G1 X75.284 Y148.901 E18.44803
G1 X75.741 Y148.855 E18.4719
G1 X76.42 Y148.578 E18.51001
G1 X76.798 Y148.269 E18.53539
G1 X77.197 Y147.664 E18.57305
G1 X77.337 Y147.196 E18.59844
G1 X77.337 Y146.424 E18.63856
G1 X77.207 Y145.985 E18.66235
G1 X77.002 Y145.591 E18.68543
G1 X76.494 Y145.064 E18.72347
G1 X76.102 Y144.849 E18.74671
G1 X75.702 Y144.723 E18.7685
G1 X75.264 Y144.682 E18.79136
G1 X74.836 Y144.726 E18.81372
G1 X74.435 Y144.852 E18.83557
G1 X74.076 Y145.049 E18.85685
G1 X73.767 Y145.302 E18.8776
G1 X73.508 Y145.619 E18.89888
G1 X73.311 Y145.981 E18.9203
G1 X73.187 Y146.386 E18.94231
G1 X73.147 Y146.821 E18.96501
G1 X73.191 Y147.246 E18.98721
G1 X73.328 Y147.681 E19.01091
G1 X73.747 Y148.285 E19.04912
G0 F3000 X73.675 Y148.353
G0 X74.808 Y148.896
G0 X107.162 Y149.43
G0 X107.092 Y149.5
G1 F1500 X93.092 Y149.5 E19.77668
G1 X93.092 Y151.155 E19.86269
G1 X93.074 Y151.321 E19.87137
G1 X93.052 Y151.374 E19.87435
G1 X93.016 Y151.421 E19.87743
G1 X92.964 Y151.461 E19.88084
G1 X92.905 Y151.485 E19.88415
G1 X92.791 Y151.5 E19.89012
G1 X75.148 Y151.5 E20.80701
G1 X74.091 Y151.445 E20.86202
G1 X73.454 Y151.294 E20.89604
G1 X72.816 Y151.032 E20.93188
G1 X72.268 Y150.697 E20.96526
G1 X71.759 Y150.265 E20.99996
G1 X71.311 Y149.743 E21.0357
G1 X70.975 Y149.194 E21.06915
G1 X70.717 Y148.578 E21.10386
G1 X70.559 Y147.925 E21.13878
G1 X70.5 Y147.223 E21.17539
G1 X70.5 Y67.767 E25.30463
G1 X70.554 Y67.088 E25.34003
G1 X70.71 Y66.437 E25.37482
G1 X70.958 Y65.837 E25.40856
G1 X71.304 Y65.268 E25.44317
G1 X71.753 Y64.739 E25.47923
G1 X72.251 Y64.314 E25.51325
G1 X72.819 Y63.967 E25.54784
G1 X73.44 Y63.709 E25.58279
G1 X74.069 Y63.559 E25.6164
G1 X74.776 Y63.5 E25.65327
G1 X125.229 Y63.5 E28.27526
G1 X125.912 Y63.554 E28.31086
G1 X126.543 Y63.705 E28.34458
G1 X127.186 Y63.969 E28.3807
G1 X127.729 Y64.301 E28.41378
G1 X128.256 Y64.748 E28.44969
G1 X128.687 Y65.253 E28.48419
G1 X129.034 Y65.819 E28.5187
G1 X129.281 Y66.418 E28.55237
G1 X129.447 Y67.093 E28.58849
G1 X129.498 Y67.753 E28.62289
G1 X129.5 Y76.999 E29.1034
G1 X129.5 Y147.225 E32.75297
G1 X129.446 Y147.911 E32.78873
G1 X129.295 Y148.546 E32.82265
G1 X129.037 Y149.177 E32.85808
G1 X128.685 Y149.749 E32.89298
G1 X128.267 Y150.239 E32.92646
G1 X127.76 Y150.673 E32.96114
G1 X127.171 Y151.038 E32.99715
G1 X126.582 Y151.281 E33.03026
G1 X125.906 Y151.447 E33.06644
G1 X125.229 Y151.5 E33.10173
G1 X107.738 Y151.5 E34.01072
G1 X107.252 Y151.474 E34.03601
G1 X107.22 Y151.461 E34.03781
G1 X107.167 Y151.42 E34.04129
G1 X107.132 Y151.374 E34.04429
G1 X107.109 Y151.319 E34.04739
G1 X107.092 Y151.164 E34.05549
G1 X107.092 Y149.5 E34.14197
G0 F3000 X107.162 Y149.43
G0 X122.987 Y148.092
G0 X123.066 Y148.032
G1 F1500 X123.592 Y148.537 E34.17986
G1 X123.995 Y148.745 E34.20343
G1 X124.394 Y148.863 E34.22506
G1 X124.822 Y148.9 E34.24738
G1 X125.274 Y148.856 E34.27098
G1 X125.949 Y148.583 E34.30882
G1 X126.329 Y148.273 E34.33431
G1 X126.736 Y147.659 E34.37259
G1 X126.863 Y147.225 E34.39609
G1 X126.9 Y146.799 E34.41831
G1 X126.86 Y146.382 E34.44008
G1 X126.733 Y145.951 E34.46343
G1 X126.338 Y145.339 E34.50129
G1 X126 Y145.049 E34.52443
G1 X125.639 Y144.849 E34.54588
G1 X125.237 Y144.723 E34.56777
G1 X124.8 Y144.68 E34.5906
G1 X124.383 Y144.724 E34.61239
G1 X123.983 Y144.846 E34.63412
G1 X123.587 Y145.058 E34.65746
G1 X123.067 Y145.579 E34.69572
G1 X122.846 Y145.983 E34.71965
G1 X122.723 Y146.386 E34.74155
G1 X122.682 Y146.819 E34.76415
G1 X122.724 Y147.236 E34.78593
G1 X122.849 Y147.638 E34.80781
G1 X123.066 Y148.032 E34.83118
G0 F3000 X122.987 Y148.092
G0 X122.651 Y146.901
G0 X124.605 Y127.833
G0 X124.521 Y127.78
G1 F1500 X124.846 Y126.985 E34.87582
G1 X124.875 Y126.304 E34.91124
G1 X124.71 Y125.662 E34.94569
G1 X124.367 Y125.096 E34.98008
G1 X123.884 Y124.659 E35.01393
G1 X123.283 Y124.375 E35.04848
G1 X122.627 Y124.279 E35.08293
G1 X121.972 Y124.375 E35.11734
G1 X121.37 Y124.659 E35.15193
G1 X120.88 Y125.106 E35.1864
G1 X120.538 Y125.674 E35.22085
G1 X120.379 Y126.318 E35.25533
G1 X120.41 Y126.981 E35.28982
G1 X120.639 Y127.614 E35.3248
G1 X121.029 Y128.138 E35.35875
G1 X121.563 Y128.534 E35.3933
G1 X122.2 Y128.757 E35.42837
G1 X122.86 Y128.787 E35.46271
G1 X123.493 Y128.627 E35.49664
G1 X124.061 Y128.286 E35.53107
G1 X124.521 Y127.78 E35.56661
G0 F3000 X124.605 Y127.833
G0 X126.615 Y90.026
G0 X126.535 Y89.967
G1 F1500 X126.747 Y89.563 E35.59032
G1 X126.873 Y89.141 E35.6132
G1 X126.873 Y88.366 E35.65348
G1 X126.731 Y87.893 E35.67915
G1 X126.343 Y87.288 E35.7165
G1 X125.996 Y86.99 E35.74027
G1 X125.634 Y86.792 E35.76171
G1 X125.236 Y86.669 E35.78336
G1 X124.81 Y86.625 E35.80562
G1 X124.381 Y86.669 E35.82803
G1 X123.978 Y86.794 E35.84996
G1 X123.612 Y86.992 E35.87158
G1 X123.27 Y87.278 E35.89475
G1 X122.863 Y87.881 E35.93256
G1 X122.725 Y88.327 E35.95682
G1 X122.68 Y88.757 E35.97929
G1 X122.725 Y89.186 E36.00171
G1 X122.853 Y89.591 E36.02378
G1 X123.072 Y89.983 E36.04711
G1 X123.597 Y90.486 E36.0849
G1 X124.024 Y90.706 E36.10986
G1 X124.774 Y90.848 E36.14953
G1 X125.231 Y90.806 E36.17338
G1 X125.629 Y90.688 E36.19496
G1 X126.024 Y90.478 E36.2182
G1 X126.535 Y89.967 E36.25576
G0 F3000 X126.615 Y90.026
G0 X126.912 Y88.361
G0 X125.269 Y82.252
G0 X124.604 Y79.988
G0 X124.52 Y80.041
G1 F1500 X124.062 Y79.537 E36.29115
G1 X123.493 Y79.195 E36.32565
G1 X122.847 Y79.034 E36.36025
G1 X122.174 Y79.069 E36.39527
G1 X121.549 Y79.298 E36.42987
G1 X121.02 Y79.695 E36.46424
G1 X120.628 Y80.229 E36.49866
G1 X120.41 Y80.845 E36.53262
G1 X120.379 Y81.505 E36.56696
G1 X120.538 Y82.149 E36.60143
G1 X120.88 Y82.718 E36.63593
G1 X121.37 Y83.163 E36.67033
G1 X121.971 Y83.448 E36.7049
G1 X122.628 Y83.544 E36.73941
G1 X123.297 Y83.444 E36.77456
G1 X123.895 Y83.154 E36.8091
G1 X124.376 Y82.716 E36.84291
G1 X124.72 Y82.138 E36.87786
G1 X124.876 Y81.505 E36.91174
G1 X124.844 Y80.826 E36.94707
G1 X124.52 Y80.041 E36.9912
G0 F3000 X124.349 Y80.936
;TYPE:WALL-OUTER
G1 F1500 X124.091 Y80.313 E37.02625
G1 X123.741 Y79.928 E37.05329
G1 X123.299 Y79.662 E37.08009
G1 X122.798 Y79.537 E37.10693
G1 X122.275 Y79.564 E37.13414
G1 X121.79 Y79.742 E37.16099
G1 X121.379 Y80.05 E37.18768
G1 X121.075 Y80.465 E37.21442
G1 X120.906 Y80.942 E37.24072
G1 X120.882 Y81.456 E37.26746
G1 X121.005 Y81.956 E37.29422
G1 X121.271 Y82.397 E37.32098
G1 X121.651 Y82.743 E37.34769
G1 X122.118 Y82.964 E37.37454
G1 X122.627 Y83.039 E37.40128
G1 X123.148 Y82.961 E37.42866
G1 X123.612 Y82.736 E37.45546
G1 X123.984 Y82.397 E37.48161
G1 X124.252 Y81.946 E37.50888
G1 X124.373 Y81.456 E37.53511
G1 X124.349 Y80.936 E37.56216
G0 F3000 X124.254 Y80.705
G0 X124.808 Y80.477
G0 X126.912 Y88.361
G0 X126.658 Y89.946
G0 X126.128 Y89.667
G1 F1500 X126.282 Y89.374 E37.57936
G1 X126.373 Y89.068 E37.59595
G1 X126.373 Y88.44 E37.62859
G1 X126.272 Y88.104 E37.64682
G1 X125.962 Y87.62 E37.67669
G1 X125.71 Y87.404 E37.69394
G1 X125.438 Y87.255 E37.71006
G1 X125.136 Y87.161 E37.72649
G1 X124.81 Y87.128 E37.74352
G1 X124.481 Y87.161 E37.76071
G1 X124.173 Y87.257 E37.77747
G1 X123.894 Y87.408 E37.79396
G1 X123.645 Y87.616 E37.81082
G1 X123.319 Y88.1 E37.84115
G1 X123.217 Y88.428 E37.859
G1 X123.183 Y88.757 E37.87619
G1 X123.217 Y89.084 E37.89327
G1 X123.314 Y89.392 E37.91005
G1 X123.472 Y89.674 E37.92685
G1 X123.89 Y90.075 E37.95695
G1 X124.188 Y90.228 E37.97436
G1 X124.798 Y90.344 E38.00663
G1 X125.136 Y90.313 E38.02427
G1 X125.439 Y90.223 E38.0407
G1 X125.723 Y90.072 E38.05741
G1 X126.128 Y89.667 E38.08718
G0 F3000 X126.244 Y89.446
G0 X126.774 Y89.725
G0 X124.885 Y126.993
G0 X124.092 Y127.509
G1 F1500 X124.35 Y126.877 E38.12266
G1 X124.372 Y126.357 E38.1497
G1 X124.244 Y125.858 E38.17648
G1 X123.977 Y125.418 E38.20322
G1 X123.603 Y125.079 E38.22946
