;FLAVOR:Marlin
;TIME:1888
;Filament used: 2.74488m
;Layer height: 0.25
;MINX:59.25
;MINY:66.75
;MINZ:0.25
;MAXX:140.75
;MAXY:148.25
;MAXZ:3
;Generated with Cura_SteamEngine 4.1.0
M140 S100
M105
M190 S100
M104 S200
M105
M109 S200
M82 ;absolute extrusion mode
G28 ;Home
G1 Z15.0 F6000 ;Move the platform down 15mm
;Prime the extruder
G92 E0
G1 F200 E3
G92 E0
G92 E0
G92 E0
G1 F1500 E-2.5
;LAYER_COUNT:12
;LAYER:0
M107
G0 F3000 X74.426 Y79.116 Z0.25
;TYPE:SKIRT
G1 F1500 E0
G1 X74.467 Y79.079 E0.00287
G1 X75.525 Y78.121 E0.07704
G1 X77.508 Y76.221 E0.21977
G1 X79.436 Y74.265 E0.3625
G1 X81.288 Y72.279 E0.50362
G1 X83.1 Y70.22 E0.64616
G1 X85.007 Y67.933 E0.80091
G1 X85.363 Y67.569 E0.82737
G1 X85.772 Y67.265 E0.85386
G1 X86.223 Y67.028 E0.88033
G1 X86.705 Y66.864 E0.90679
G1 X87.355 Y66.768 E0.94094
G1 X87.685 Y66.753 E0.95811
G1 X87.833 Y66.75 E0.9658
G1 X111.836 Y66.75 E2.21321
G1 X112.537 Y66.76 E2.24964
G1 X113.045 Y66.808 E2.27616
G1 X113.538 Y66.933 E2.30259
G1 X114.006 Y67.135 E2.32908
G1 X114.437 Y67.407 E2.35557
G1 X114.82 Y67.743 E2.38205
G1 X114.991 Y67.933 E2.39533
G1 X116.882 Y70.209 E2.54911
G1 X118.693 Y72.265 E2.6915
G1 X120.53 Y74.235 E2.83148
G1 X122.475 Y76.206 E2.97539
G1 X124.475 Y78.121 E3.11929
G1 X126.118 Y79.617 E3.23477
G1 X126.148 Y79.645 E3.2369
G1 X126.465 Y79.941 E3.25944
G1 X126.66 Y80.138 E3.27384
G1 X127.281 Y80.826 E3.32201
G1 X127.315 Y80.865 E3.3247
G1 X127.816 Y81.438 E3.36425
G1 X129.684 Y83.458 E3.50724
G1 X131.586 Y85.403 E3.64862
G1 X133.579 Y87.328 E3.79261
G1 X135.569 Y89.144 E3.93262
G1 X137.676 Y90.961 E4.07721
G1 X138.738 Y91.82 E4.1482
G1 X138.773 Y91.848 E4.15053
G1 X139.562 Y92.504 E4.20385
G1 X139.927 Y92.859 E4.23031
G1 X140.232 Y93.268 E4.25683
G1 X140.469 Y93.718 E4.28326
G1 X140.633 Y94.201 E4.30977
G1 X140.73 Y94.846 E4.34366
G1 X140.746 Y95.176 E4.36083
G1 X140.75 Y95.333 E4.369
G1 X140.75 Y119.316 E5.61537
G1 X140.74 Y120.033 E5.65263
G1 X140.693 Y120.541 E5.67915
G1 X140.567 Y121.034 E5.70559
G1 X140.366 Y121.502 E5.73206
G1 X140.094 Y121.933 E5.75855
G1 X139.758 Y122.316 E5.78502
G1 X139.543 Y122.507 E5.79997
G1 X138.984 Y122.963 E5.83746
G1 X136.843 Y124.744 E5.98219
G1 X134.785 Y126.557 E6.12472
G1 X132.792 Y128.412 E6.26622
G1 X130.85 Y130.331 E6.4081
G1 X128.946 Y132.315 E6.55101
G1 X126.735 Y134.778 E6.72302
G1 X126.543 Y134.975 E6.73731
G1 X125.598 Y135.863 E6.8047
G1 X125.553 Y135.904 E6.80787
G1 X124.474 Y136.88 E6.88348
G1 X122.492 Y138.78 E7.02617
G1 X120.564 Y140.736 E7.1689
G1 X118.713 Y142.721 E7.30995
G1 X116.881 Y144.803 E7.45407
G1 X114.992 Y147.067 E7.6073
G1 X114.636 Y147.432 E7.6338
G1 X114.228 Y147.736 E7.66024
G1 X113.777 Y147.973 E7.68672
G1 X113.294 Y148.136 E7.71321
G1 X112.645 Y148.232 E7.74731
G1 X112.315 Y148.247 E7.76447
G1 X112.167 Y148.25 E7.77217
G1 X88.164 Y148.25 E9.01958
G1 X87.463 Y148.24 E9.05601
G1 X86.955 Y148.192 E9.08253
G1 X86.462 Y148.067 E9.10896
G1 X85.994 Y147.865 E9.13545
G1 X85.563 Y147.593 E9.16194
G1 X85.18 Y147.257 E9.18842
G1 X85.009 Y147.067 E9.2017
G1 X83.118 Y144.791 E9.35548
G1 X81.307 Y142.735 E9.49787
G1 X79.467 Y140.762 E9.63807
G1 X77.525 Y138.794 E9.78176
G1 X75.516 Y136.87 E9.92632
G1 X73.882 Y135.383 E10.04114
G1 X73.847 Y135.351 E10.0436
G1 X73.525 Y135.049 E10.06654
G1 X73.335 Y134.855 E10.08065
G1 X72.719 Y134.172 E10.12845
G1 X72.685 Y134.134 E10.1311
G1 X72.184 Y133.561 E10.17066
G1 X70.316 Y131.541 E10.31364
G1 X68.414 Y129.596 E10.45502
G1 X66.441 Y127.691 E10.59755
G1 X64.393 Y125.822 E10.74164
G1 X62.362 Y124.071 E10.881
G1 X61.26 Y123.179 E10.95468
G1 X61.23 Y123.154 E10.95671
G1 X60.438 Y122.497 E11.01019
G1 X60.073 Y122.142 E11.03665
G1 X59.767 Y121.735 E11.06311
G1 X59.529 Y121.284 E11.08961
G1 X59.364 Y120.802 E11.11609
G1 X59.266 Y120.124 E11.15169
G1 X59.253 Y119.795 E11.1688
G1 X59.25 Y119.667 E11.17545
G1 X59.25 Y95.663 E12.42292
G1 X59.26 Y94.965 E12.45919
G1 X59.308 Y94.458 E12.48566
G1 X59.433 Y93.964 E12.51214
G1 X59.635 Y93.496 E12.53863
G1 X59.907 Y93.066 E12.56507
G1 X60.243 Y92.683 E12.59155
G1 X60.457 Y92.493 E12.60642
G1 X61.016 Y92.037 E12.64391
G1 X63.177 Y90.24 E12.78998
G1 X65.199 Y88.459 E12.93001
G1 X67.209 Y86.588 E13.07272
G1 X69.16 Y84.661 E13.21523
G1 X71.054 Y82.685 E13.35747
G1 X73.268 Y80.218 E13.52974
G1 X73.464 Y80.017 E13.54433
G1 X74.426 Y79.116 E13.61282
G1 F1500 E11.11282
;MESH:Orangepi Zero drone case (1).stl
G0 F3000 X76.009 Y81.274
G0 X76.764 Y82.494
G0 X81.058 Y85.042
G0 X81.769 Y85.92
G0 X81.675 Y85.951
;TYPE:WALL-INNER
G1 F1500 E13.61282
G1 X81.413 Y85.452 E13.64211
G1 X81.035 Y85.074 E13.6699
G1 X80.541 Y84.823 E13.69869
G1 X79.982 Y84.74 E13.72806
G1 X79.45 Y84.826 E13.75607
G1 X78.953 Y85.086 E13.78522
G1 X78.574 Y85.465 E13.81307
G1 X78.324 Y85.956 E13.84171
G1 X78.238 Y86.505 E13.87058
G1 X78.333 Y87.061 E13.8999
G1 X78.577 Y87.539 E13.92779
G1 X78.981 Y87.934 E13.95715
G1 X79.456 Y88.176 E13.98486
G1 X80.005 Y88.262 E14.01373
G1 X80.561 Y88.167 E14.04305
G1 X81.039 Y87.923 E14.07094
G1 X81.437 Y87.515 E14.10056
G1 X81.678 Y87.027 E14.12884
G1 X81.761 Y86.5 E14.15657
G1 X81.675 Y85.951 E14.18545
G0 F3000 X81.769 Y85.92
G0 X88.281 Y82.318
G0 X98.687 Y73.539
G0 X98.742 Y73.621
G1 F1500 X98.253 Y74.069 E14.21991
G1 X97.956 Y74.546 E14.24912
G1 X97.782 Y75.069 E14.27776
G1 X97.753 Y75.71 E14.31111
G1 X97.845 Y76.174 E14.33569
G1 X98.126 Y76.763 E14.3696
G1 X98.569 Y77.249 E14.40378
G1 X99.047 Y77.543 E14.43294
G1 X99.568 Y77.717 E14.46149
G1 X100.117 Y77.752 E14.49008
G1 X100.676 Y77.656 E14.51955
G1 X101.252 Y77.377 E14.55281
G1 X101.617 Y77.076 E14.5774
G1 X102.033 Y76.483 E14.61505
G1 X102.218 Y75.932 E14.64525
G1 X102.247 Y75.29 E14.67865
G1 X102.155 Y74.826 E14.70323
G1 X101.881 Y74.252 E14.73629
G1 X101.565 Y73.872 E14.76197
G1 X100.98 Y73.465 E14.79901
G1 X100.434 Y73.286 E14.82887
G1 X99.964 Y73.242 E14.8534
G1 X99.332 Y73.341 E14.88665
G1 X98.742 Y73.621 E14.92058
G0 F3000 X98.687 Y73.539
G0 X99.963 Y73.203
G0 X100.997 Y73.43
G0 X101.914 Y74.231
G0 X118.91 Y88.01
G0 X118.968 Y87.929
G1 F1500 X119.478 Y88.181 E14.95015
G1 X120.023 Y88.259 E14.97876
G1 X120.561 Y88.167 E15.00712
G1 X121.035 Y87.926 E15.03476
G1 X121.429 Y87.532 E15.06372
G1 X121.681 Y87.022 E15.09328
G1 X121.759 Y86.477 E15.12189
G1 X121.667 Y85.939 E15.15026
G1 X121.423 Y85.461 E15.17815
G1 X121.019 Y85.066 E15.20751
G1 X120.546 Y84.825 E15.2351
G1 X119.999 Y84.738 E15.26388
G1 X119.45 Y84.826 E15.29278
G1 X118.953 Y85.086 E15.32193
G1 X118.574 Y85.465 E15.34978
G1 X118.323 Y85.96 E15.37862
G1 X118.241 Y86.522 E15.40814
G1 X118.333 Y87.061 E15.43656
G1 X118.574 Y87.535 E15.46419
G1 X118.968 Y87.929 E15.49315
G0 F3000 X118.91 Y88.01
G0 X124.184 Y95.781
G0 X133.677 Y105.837
G0 X133.607 Y105.907
G1 F1500 X132.996 Y105.473 E15.5321
G1 X132.434 Y105.282 E15.56294
G1 X131.798 Y105.252 E15.59603
G1 X131.327 Y105.344 E15.62097
G1 X130.758 Y105.614 E15.6537
G1 X130.377 Y105.93 E15.67943
G1 X129.966 Y106.519 E15.71675
G1 X129.783 Y107.072 E15.74702
G1 X129.748 Y107.616 E15.77535
G1 X129.843 Y108.173 E15.80472
G1 X130.122 Y108.758 E15.8384
G1 X130.569 Y109.248 E15.87287
G1 X131.05 Y109.545 E15.90225
G1 X131.563 Y109.713 E15.9303
G1 X132.027 Y109.759 E15.95453
G1 X132.67 Y109.659 E15.98835
G1 X133.265 Y109.373 E16.02266
G1 X133.746 Y108.933 E16.05654
G1 X134.04 Y108.465 E16.08526
G1 X134.218 Y107.931 E16.11451
G1 X134.247 Y107.29 E16.14786
G1 X134.161 Y106.852 E16.17106
G1 X134.023 Y106.501 E16.19066
G1 X133.607 Y105.907 E16.22834
G0 F3000 X133.677 Y105.837
G0 X134.286 Y107.288
G0 X134.076 Y108.482
G0 X126.825 Y119.21
G0 X124.184 Y119.219
G0 X124.186 Y120.673
G0 X121.51 Y129.59
G0 X121.429 Y129.532
G1 F1500 X121.68 Y129.022 E16.25788
G1 X121.759 Y128.482 E16.28624
G1 X121.675 Y127.951 E16.31418
G1 X121.413 Y127.452 E16.34347
G1 X121.035 Y127.074 E16.37125
G1 X120.54 Y126.823 E16.4001
G1 X119.978 Y126.741 E16.42961
G1 X119.439 Y126.833 E16.45803
G1 X118.961 Y127.077 E16.48592
G1 X118.566 Y127.481 E16.51528
G1 X118.324 Y127.956 E16.54299
G1 X118.238 Y128.505 E16.57187
G1 X118.333 Y129.065 E16.60138
G1 X118.587 Y129.548 E16.62975
G1 X118.965 Y129.926 E16.65753
G1 X119.459 Y130.177 E16.68632
G1 X120.018 Y130.26 E16.71569
G1 X120.55 Y130.174 E16.7437
G1 X121.047 Y129.914 E16.77285
G1 X121.429 Y129.532 E16.80092
G0 F3000 X121.51 Y129.59
G0 X120.659 Y130.16
G0 X111.677 Y132.64
G0 X111.747 Y132.71
G1 F1500 X111.747 Y132.96 E16.81392
G1 X111.747 Y144.25 E17.40064
G1 X88.253 Y144.25 E18.6216
G1 X88.253 Y132.711 E19.22127
G1 X77.538 Y132.71 E19.77812
G1 X77.219 Y132.68 E19.79477
G1 X76.955 Y132.611 E19.80895
G1 X76.734 Y132.515 E19.82147
G1 X76.495 Y132.358 E19.83634
G1 X76.288 Y132.169 E19.8509
G1 X76.117 Y131.955 E19.86514
G1 X75.973 Y131.704 E19.88018
G1 X75.872 Y131.442 E19.89477
G1 X75.81 Y131.161 E19.90972
G1 X75.789 Y130.878 E19.92447
G1 X75.788 Y119.247 E20.52892
G1 X63.25 Y119.247 E21.18051
G1 X63.25 Y95.753 E22.40147
G1 X75.788 Y95.753 E23.05305
G1 X75.788 Y84.131 E23.65704
G1 X75.817 Y83.793 E23.67467
G1 X75.888 Y83.507 E23.68998
G1 X75.994 Y83.25 E23.70443
G1 X76.141 Y83.007 E23.71919
G1 X76.316 Y82.8 E23.73328
G1 X76.524 Y82.62 E23.74757
G1 X76.755 Y82.477 E23.76169
G1 X77.004 Y82.373 E23.77571
G1 X77.242 Y82.317 E23.78842
G1 X78.387 Y82.289 E23.84794
G1 X88.003 Y82.29 E24.34768
G1 X88.253 Y82.29 E24.36067
G1 X88.253 Y82.04 E24.36907
G1 X88.253 Y70.75 E24.9558
G1 X111.747 Y70.75 E26.17676
G1 X111.747 Y82.289 E26.77643
G1 X122.459 Y82.289 E27.33312
G1 X122.781 Y82.32 E27.34994
G1 X123.045 Y82.389 E27.36412
G1 X123.266 Y82.485 E27.37664
G1 X123.505 Y82.642 E27.3915
G1 X123.712 Y82.831 E27.40607
G1 X123.883 Y83.045 E27.4203
G1 X124.027 Y83.296 E27.43534
G1 X124.128 Y83.558 E27.44993
G1 X124.19 Y83.839 E27.46489
G1 X124.211 Y84.122 E27.47963
G1 X124.212 Y95.753 E28.08409
G1 X136.75 Y95.753 E28.73567
G1 X136.75 Y119.247 E29.95663
G1 X124.212 Y119.247 E30.60822
G1 X124.211 Y130.873 E31.21241
G1 X124.183 Y131.206 E31.22978
G1 X124.112 Y131.493 E31.24514
G1 X124.006 Y131.75 E31.25959
G1 X123.859 Y131.993 E31.27435
G1 X123.684 Y132.2 E31.28843
G1 X123.476 Y132.38 E31.30273
G1 X123.245 Y132.523 E31.31685
G1 X122.996 Y132.627 E31.33087
G1 X122.758 Y132.683 E31.34358
G1 X121.613 Y132.711 E31.4031
G1 X111.997 Y132.71 E31.90283
G1 X111.747 Y132.71 E31.91124
G0 F3000 X111.677 Y132.64
G0 X102.258 Y138.813
G0 X102.163 Y138.842
G1 F1500 X101.881 Y138.252 E31.94522
G1 X101.564 Y137.872 E31.97094
G1 X100.984 Y137.468 E32.00767
G1 X100.434 Y137.282 E32.03785
G1 X99.798 Y137.252 E32.07094
G1 X99.324 Y137.345 E32.09604
G1 X98.748 Y137.623 E32.12928
G1 X98.377 Y137.93 E32.1543
G1 X97.967 Y138.518 E32.19156
G1 X97.782 Y139.068 E32.22171
G1 X97.753 Y139.71 E32.25511
G1 X97.845 Y140.174 E32.27969
G1 X98.126 Y140.763 E32.31361
G1 X98.569 Y141.247 E32.34771
G1 X99.046 Y141.544 E32.37691
G1 X99.569 Y141.718 E32.40555
G1 X100.211 Y141.747 E32.43895
G1 X100.685 Y141.652 E32.46407
G1 X101.24 Y141.386 E32.49606
G1 X101.617 Y141.078 E32.52136
G1 X102.028 Y140.494 E32.55847
G1 X102.214 Y139.943 E32.58869
G1 X102.257 Y139.465 E32.61364
G1 X102.163 Y138.842 E32.64638
G0 F3000 X102.258 Y138.813
G0 X101.591 Y137.843
G0 X81.09 Y126.99
G0 X81.032 Y127.071
G1 F1500 X80.522 Y126.819 E32.67594
G1 X79.977 Y126.741 E32.70455
G1 X79.439 Y126.833 E32.73292
G1 X78.961 Y127.077 E32.76081
G1 X78.566 Y127.482 E32.79021
G1 X78.323 Y127.96 E32.81808
G1 X78.241 Y128.522 E32.84759
G1 X78.333 Y129.061 E32.87601
G1 X78.574 Y129.535 E32.90364
G1 X78.965 Y129.926 E32.93238
G1 X79.455 Y130.175 E32.96094
G1 X80 Y130.262 E32.98962
G1 X80.55 Y130.174 E33.01857
G1 X81.047 Y129.914 E33.04772
G1 X81.426 Y129.535 E33.07558
G1 X81.676 Y129.044 E33.10421
G1 X81.762 Y128.495 E33.13309
G1 X81.667 Y127.939 E33.1624
G1 X81.426 Y127.465 E33.19004
G1 X81.032 Y127.071 E33.21899
G0 F3000 X81.09 Y126.99
G0 X75.816 Y119.219
G0 X68.7 Y109.754
G0 X68.671 Y109.659
G1 F1500 X69.269 Y109.368 E33.25356
G1 X69.747 Y108.933 E33.28714
G1 X70.039 Y108.465 E33.31581
G1 X70.216 Y107.939 E33.34465
G1 X70.252 Y107.384 E33.37356
G1 X70.156 Y106.825 E33.40303
G1 X69.873 Y106.235 E33.43704
G1 X69.431 Y105.752 E33.47106
G1 X68.953 Y105.456 E33.50028
G1 X68.442 Y105.285 E33.52828
G1 X67.895 Y105.245 E33.55679
G1 X67.333 Y105.34 E33.58641
G1 X66.747 Y105.623 E33.62023
G1 X66.373 Y105.934 E33.64551
G1 X65.965 Y106.519 E33.68257
G1 X65.781 Y107.076 E33.71306
G1 X65.753 Y107.71 E33.74604
G1 X65.845 Y108.176 E33.77072
G1 X66.123 Y108.752 E33.80396
G1 X66.434 Y109.127 E33.82928
G1 X67.017 Y109.534 E33.86623
G1 X67.551 Y109.713 E33.8955
G1 X68.036 Y109.758 E33.92081
G1 X68.671 Y109.659 E33.95421
G0 F3000 X68.52 Y109.176
;TYPE:WALL-OUTER
G1 F1500 X68.986 Y108.95 E33.98113
G1 X69.359 Y108.61 E34.00735
G1 X69.584 Y108.25 E34.02942
G1 X69.721 Y107.842 E34.05178
G1 X69.749 Y107.41 E34.07428
G1 X69.675 Y106.978 E34.09706
G1 X69.454 Y106.518 E34.12358
G1 X69.109 Y106.141 E34.15014
G1 X68.739 Y105.912 E34.17275
G1 X68.343 Y105.779 E34.19446
G1 X67.919 Y105.748 E34.21656
G1 X67.487 Y105.821 E34.23932
G1 X67.02 Y106.047 E34.26629
G1 X66.744 Y106.276 E34.28492
G1 X66.417 Y106.745 E34.31464
G1 X66.277 Y107.167 E34.33774
G1 X66.255 Y107.672 E34.36401
G1 X66.323 Y108.016 E34.38224
G1 X66.547 Y108.48 E34.40901
G1 X66.776 Y108.756 E34.42765
G1 X67.244 Y109.083 E34.45732
G1 X67.655 Y109.22 E34.47983
G1 X68.02 Y109.254 E34.49889
G1 X68.52 Y109.176 E34.52518
G0 F3000 X68.745 Y109.067
G0 X69.006 Y109.606
G0 X74.522 Y117.391
G0 X81.161 Y127.06
G0 X80.737 Y127.483
G1 F1500 X80.372 Y127.303 E34.54633
G1 X79.984 Y127.247 E34.56671
G1 X79.598 Y127.313 E34.58706
G1 X79.261 Y127.485 E34.60672
G1 X78.977 Y127.776 E34.62785
G1 X78.806 Y128.113 E34.64749
G1 X78.747 Y128.516 E34.66866
G1 X78.813 Y128.902 E34.68901
G1 X78.984 Y129.238 E34.7086
G1 X79.262 Y129.516 E34.72903
G1 X79.612 Y129.694 E34.74944
G1 X80 Y129.756 E34.76986
G1 X80.39 Y129.693 E34.79039
G1 X80.748 Y129.506 E34.81138
G1 X81.016 Y129.238 E34.83108
G1 X81.194 Y128.888 E34.85148
G1 X81.255 Y128.498 E34.872
G1 X81.187 Y128.098 E34.89308
G1 X81.016 Y127.762 E34.91268
G1 X80.737 Y127.483 E34.93318
G0 F3000 X80.513 Y127.373
G0 X80.778 Y126.835
G0 X87.53 Y132.098
G0 X98.102 Y140.884
G0 X98.545 Y140.481
G1 F1500 X98.891 Y140.859 E34.95981
G1 X99.26 Y141.088 E34.98238
G1 X99.661 Y141.222 E35.00435
G1 X100.172 Y141.245 E35.03094
G1 X100.525 Y141.174 E35.04965
G1 X100.97 Y140.961 E35.07529
G1 X101.247 Y140.734 E35.0939
G1 X101.577 Y140.265 E35.1237
G1 X101.721 Y139.839 E35.14707
G1 X101.754 Y139.48 E35.16581
G1 X101.68 Y138.99 E35.19156
G1 X101.457 Y138.524 E35.21841
G1 X101.223 Y138.244 E35.23737
G1 X100.756 Y137.919 E35.26694
G1 X100.34 Y137.778 E35.28977
G1 X99.835 Y137.754 E35.31604
G1 X99.484 Y137.823 E35.33463
G1 X99.02 Y138.047 E35.36141
G1 X98.748 Y138.272 E35.37975
G1 X98.418 Y138.745 E35.40973
G1 X98.278 Y139.161 E35.43254
G1 X98.255 Y139.672 E35.45912
G1 X98.323 Y140.015 E35.47729
G1 X98.545 Y140.481 E35.50412
G0 F3000 X98.713 Y140.665
G0 X98.271 Y141.069
G0 X99.562 Y141.757
G0 X100.697 Y141.689
G0 X111.719 Y132.682
G0 X112.247 Y133.21
G1 F1500 X112.247 Y133.46 E35.51711
G1 X112.247 Y144.75 E36.10384
G1 X87.753 Y144.75 E37.37677
G1 X87.753 Y133.211 E37.97644
G1 X77.512 Y133.21 E38.50865
G1 X77.13 Y133.174 E38.52859
G1 X76.792 Y133.085 E38.54676
G1 X76.499 Y132.958 E38.56335
G1 X76.184 Y132.752 E38.58291
G1 X75.925 Y132.516 E38.60112
G1 X75.699 Y132.232 E38.61998
G1 X75.522 Y131.923 E38.63849
G1 X75.392 Y131.588 E38.65716
G1 X75.313 Y131.23 E38.67622
G1 X75.289 Y130.9 E38.69341
G1 X75.288 Y119.747 E39.27302
G1 X62.75 Y119.747 E39.92461
G1 X62.75 Y95.253 E41.19754
